rauw/Rauw/Looks/D700.cube
TITLE "iPhone 15 Leica Kleur (preview-benadering)"
LUT_3D_SIZE 9
0.019608 0.019608 0.019608
0.019608 0.019608 0.019608
0.019608 0.019608 0.019608
0.058050 0.020903 0.020903
0.157770 0.023548 0.023548
0.285248 0.026838 0.026838
0.422333 0.030359 0.030359
0.552954 0.033711 0.033711
0.676298 0.036925 0.036996
0.020648 0.027267 0.020648
0.041605 0.041716 0.022846
0.097317 0.054602 0.022545
0.183706 0.065145 0.026928
0.292062 0.074239 0.030978
0.412502 0.081751 0.034373
0.528761 0.087993 0.037760
0.636613 0.093057 0.041130
0.737365 0.097007 0.044379
0.029822 0.130236 0.029822
0.076387 0.142907 0.032086
0.156047 0.156807 0.035301
0.262876 0.167400 0.029939
0.375977 0.174455 0.032102
0.480509 0.179557 0.037947
0.571501 0.183181 0.044239
0.659744 0.186742 0.049409
0.748711 0.190181 0.053639
0.040302 0.268134 0.041701
0.094243 0.274389 0.043916
0.179311 0.278982 0.046986
0.277036 0.282294 0.050388
0.384465 0.285641 0.039485
0.489637 0.288009 0.041540
0.588883 0.290319 0.043441
0.684690 0.292771 0.045996
0.776757 0.296023 0.051280
0.046547 0.385848 0.053564
0.100790 0.388053 0.055466
0.186291 0.391479 0.058417
0.285378 0.395373 0.061726
0.388881 0.399406 0.065006
0.496892 0.403590 0.048881
0.597469 0.405755 0.049530
0.693612 0.406990 0.050768
0.787943 0.407646 0.051973
0.052960 0.497672 0.064487
0.108107 0.500204 0.066167
0.195479 0.503882 0.068648
0.295929 0.507019 0.071356
0.399434 0.509381 0.074077
0.499989 0.511142 0.076679
0.598210 0.513011 0.060111
0.693790 0.513239 0.055507
0.786922 0.513381 0.056661
0.061192 0.601996 0.073149
0.116545 0.602851 0.074563
0.203261 0.603944 0.076760
0.302375 0.605163 0.079269
0.404563 0.606475 0.081860
0.504447 0.607902 0.084404
0.597891 0.609337 0.086792
0.691710 0.611543 0.071620
0.787657 0.612666 0.061071
0.068812 0.695671 0.080769
0.123695 0.695955 0.082121
0.209549 0.696906 0.084277
0.308086 0.698373 0.086781
0.410016 0.700170 0.089394
0.510184 0.702203 0.091936
0.604437 0.704362 0.094209
0.695888 0.706754 0.096323
0.790207 0.710175 0.082049
0.076310 0.787866 0.088267
0.130943 0.788660 0.089649
0.216551 0.790367 0.091803
0.315459 0.792752 0.094182
0.418385 0.795580 0.096545
0.520029 0.798727 0.098794
0.616132 0.802367 0.100889
0.709936 0.806574 0.102929
0.803928 0.811251 0.104984
0.019608 0.019608 0.019608
0.019608 0.019608 0.019608
0.019608 0.019608 0.019608
0.074924 0.021532 0.036678
0.176981 0.024313 0.052120
0.303088 0.027631 0.063874
0.437819 0.031141 0.073486
0.565432 0.034452 0.081328
0.686375 0.037663 0.087965
0.021431 0.032897 0.033031
0.045561 0.045683 0.045925
0.100049 0.058291 0.058655
0.188667 0.068433 0.068889
0.298013 0.077004 0.077528
0.417187 0.084313 0.084892
0.531210 0.090353 0.091118
0.636831 0.095188 0.096264
0.735049 0.098872 0.100309
0.030606 0.134857 0.073436
0.080130 0.146050 0.080924
0.158888 0.159641 0.088314
0.264828 0.169589 0.086749
0.371880 0.177073 0.093882
0.470651 0.182575 0.100764
0.562664 0.185997 0.104826
0.653643 0.189021 0.107920
0.744573 0.192057 0.110987
0.040798 0.270604 0.095526
0.097880 0.274718 0.101389
0.181231 0.278812 0.105091
0.277195 0.282663 0.109077
0.383981 0.286196 0.098949
0.488895 0.288710 0.100940
0.587367 0.291244 0.103489
0.678654 0.294751 0.109465
0.767967 0.298777 0.115735
0.046884 0.386600 0.108418
0.104571 0.387481 0.113790
0.189103 0.391215 0.117235
0.287007 0.395477 0.121026
0.389298 0.399883 0.124802
0.497071 0.404183 0.108532
0.596855 0.406191 0.109701
0.692532 0.407325 0.110754
0.786506 0.407933 0.111742
0.053421 0.498545 0.119773
0.112271 0.499642 0.125157
0.198888 0.503393 0.128060
0.298184 0.506543 0.131048
0.400465 0.509023 0.133971
0.499850 0.510972 0.136719
0.598068 0.512999 0.117869
0.692834 0.513243 0.115359
0.785792 0.513506 0.116238
0.061685 0.602332 0.128625
0.120742 0.601586 0.133688
0.206687 0.602775 0.136009
0.304862 0.604209 0.138592
0.406117 0.605791 0.141276
0.505142 0.607508 0.143932
0.597783 0.609201 0.146434
0.691671 0.611687 0.128890
0.787080 0.612827 0.120621
0.069279 0.695757 0.135823
0.127922 0.694577 0.140861
0.213159 0.695726 0.143144
0.310940 0.697445 0.145748
0.412122 0.699520 0.148494
0.511635 0.701831 0.151172
0.605304 0.704261 0.153601
0.696213 0.706920 0.155902
0.790647 0.710653 0.139523
0.076787 0.788119 0.143010
0.135239 0.787459 0.148171
0.220405 0.789379 0.150493
0.318754 0.792032 0.153024
0.421124 0.795133 0.155583
0.522267 0.798592 0.158069
0.617963 0.802581 0.160458
0.711375 0.807089 0.162841
0.804955 0.812024 0.165277
0.019608 0.019608 0.019608
0.019608 0.019608 0.019608
0.025144 0.019944 0.025225
0.094892 0.022382 0.068487
0.199741 0.025326 0.098132
0.324488 0.028702 0.121756
0.456235 0.032215 0.141074
0.580332 0.035509 0.156457
0.698248 0.038733 0.168672
0.022066 0.039245 0.061723
0.050252 0.050402 0.084505
0.107915 0.062004 0.109316
0.199158 0.071509 0.130917
0.308942 0.079595 0.148410
0.426973 0.086493 0.162386
0.538563 0.092159 0.173178
0.641546 0.096612 0.180920
0.736562 0.099888 0.185704
0.031695 0.140602 0.141943
0.082726 0.151086 0.152490
0.162857 0.163650 0.165099
0.260253 0.174230 0.176020
0.364579 0.181320 0.183528
0.464741 0.185322 0.187943
0.558163 0.188472 0.191497
0.649068 0.191571 0.194996
0.739900 0.194682 0.198491
0.041501 0.273487 0.180575
0.098784 0.276535 0.185215
0.184536 0.278958 0.191329
0.277807 0.283607 0.196361
0.383324 0.287175 0.190637
0.484153 0.290663 0.195901
0.574025 0.295345 0.203339
0.663089 0.299676 0.208548
0.754339 0.303462 0.212186
0.047415 0.387747 0.194590
0.105267 0.388766 0.198806
0.193671 0.391057 0.206135
0.289817 0.395844 0.210863
0.390183 0.400831 0.215483
0.496927 0.405021 0.202206
0.595855 0.406874 0.203298
0.690882 0.407916 0.204129
0.780697 0.409263 0.207970
0.054167 0.499830 0.206856
0.113222 0.501013 0.211392
0.204260 0.502712 0.218755
0.301907 0.505940 0.222229
0.402309 0.508685 0.225382
0.499904 0.510979 0.228281
0.598018 0.513083 0.208159
0.691541 0.513426 0.208274
0.784219 0.513858 0.208810
0.062459 0.602840 0.215897
0.121529 0.602040 0.219885
0.212127 0.601258 0.226624
0.309004 0.602995 0.229414
0.408819 0.605008 0.232205
0.506485 0.607155 0.235006
0.597876 0.609250 0.237661
0.692019 0.612048 0.217140
0.786338 0.613203 0.213094
0.070023 0.696020 0.222201
0.128686 0.694968 0.226317
0.218848 0.694190 0.233334
0.315613 0.696237 0.236232
0.415635 0.698734 0.239180
0.514123 0.701458 0.242074
0.606864 0.704289 0.244775
0.696899 0.707341 0.247411
0.791671 0.711508 0.228050
0.077542 0.788613 0.228811
0.136054 0.788095 0.233250
0.226452 0.788084 0.240625
0.324081 0.791064 0.243588
0.425567 0.794565 0.246499
0.525925 0.798518 0.249443
0.620928 0.802987 0.252401
0.713666 0.807914 0.255435
0.806535 0.813213 0.258584
0.019608 0.019608 0.019608
0.019608 0.019608 0.019608
0.042587 0.020791 0.055233
0.113395 0.023311 0.114950
0.220048 0.026442 0.162588
0.343978 0.029901 0.199472
0.472812 0.033411 0.227712
0.593726 0.036702 0.249109
0.708652 0.039925 0.265331
0.022754 0.044668 0.104837
0.054481 0.054654 0.141019
0.116122 0.065243 0.180849
0.208959 0.074553 0.212069
0.319032 0.082191 0.237134
0.435724 0.088696 0.256265
0.544899 0.093981 0.270169
0.645191 0.098039 0.279171
0.737414 0.100955 0.283714
0.032405 0.146174 0.229660
0.084104 0.156099 0.242840
0.166607 0.167599 0.256038
0.263812 0.177195 0.268872
0.366617 0.183179 0.278427
0.465743 0.186635 0.283524
0.559223 0.189781 0.287873
0.650230 0.192877 0.292004
0.741194 0.195983 0.296043
0.042225 0.275958 0.279286
0.099598 0.277989 0.281488
0.185596 0.280559 0.284311
0.279070 0.285253 0.289318
0.375363 0.290502 0.295079
0.473189 0.295005 0.300012
0.566704 0.299001 0.304329
0.658458 0.302742 0.308280
0.750393 0.306242 0.311865
0.048033 0.389040 0.293589
0.106075 0.390208 0.296453
0.194826 0.392712 0.301610
0.293357 0.396659 0.308555
0.391601 0.402268 0.314157
0.496735 0.405981 0.307344
0.592029 0.408290 0.310851
0.677029 0.411467 0.317352
0.761593 0.414161 0.321571
0.055058 0.501234 0.306745
0.114325 0.502475 0.310244
0.205449 0.503934 0.315639
0.306303 0.505574 0.322126
0.404743 0.508624 0.325671
0.500333 0.511354 0.328786
0.597347 0.513301 0.312931
0.690280 0.513830 0.313146
0.782607 0.514424 0.313548
0.063341 0.603400 0.315618
0.122433 0.602583 0.318385
0.213038 0.601873 0.323259
0.313883 0.602027 0.329716
0.412248 0.604472 0.332898
0.508354 0.607087 0.335936
0.598321 0.609643 0.338844
0.692696 0.612526 0.317785
0.785680 0.613784 0.317932
0.070882 0.696425 0.321070
0.129576 0.695502 0.324188
0.219784 0.694888 0.329696
0.321044 0.695238 0.336879
0.419965 0.698124 0.340300
0.517274 0.701306 0.343501
0.608935 0.704581 0.346558
0.697947 0.708066 0.349605
0.793347 0.712591 0.327826
0.078419 0.789263 0.327237
0.137027 0.788891 0.330876
0.227600 0.789091 0.337061
0.330224 0.790264 0.344832
0.430897 0.794129 0.348379
0.530353 0.798648 0.351895
0.624512 0.803617 0.355498
0.716423 0.808981 0.359235
0.808423 0.814665 0.363128
0.019608 0.019608 0.019608
0.019608 0.019608 0.019608
0.056912 0.021541 0.100179
0.130985 0.024247 0.181860
0.238300 0.027628 0.241877
0.361679 0.031145 0.287446
0.487712 0.034635 0.322386
0.605627 0.037938 0.348688
0.717579 0.041144 0.367711
0.023583 0.049507 0.168200
0.058403 0.058595 0.215491
0.123478 0.068378 0.264927
0.218823 0.077060 0.303481
0.328285 0.084666 0.333182
0.443402 0.090821 0.356301
0.550176 0.095716 0.372130
0.647721 0.099368 0.381231
0.738322 0.102068 0.385335
0.033388 0.151282 0.325494
0.085844 0.160516 0.341334
0.169756 0.171003 0.355780
0.267929 0.179229 0.369190
0.368081 0.184694 0.376685
0.466798 0.188008 0.382642
0.560339 0.191144 0.387830
0.651452 0.194232 0.392623
0.742553 0.197327 0.397226
0.042522 0.278009 0.382144
0.099109 0.279582 0.382378
0.185131 0.282467 0.383043
0.280363 0.287039 0.385082
0.376936 0.292296 0.390923
0.474699 0.296723 0.397643
0.568311 0.300646 0.403196
0.660222 0.304328 0.408073
0.751900 0.307588 0.412139
0.048672 0.390387 0.396276
0.106881 0.391713 0.397749
0.195971 0.394440 0.400656
0.294952 0.398613 0.404938
0.393546 0.404179 0.410469
0.489040 0.409120 0.415495
0.579979 0.412398 0.418826
0.668313 0.414758 0.421219
0.755902 0.416642 0.423124
0.056027 0.502668 0.410327
0.115437 0.503827 0.412628
0.206633 0.505093 0.415855
0.307504 0.506686 0.419802
0.407507 0.508944 0.424548
0.501146 0.512111 0.427997
0.596751 0.513703 0.419570
0.686690 0.514939 0.422053
0.768916 0.517949 0.428563
0.064251 0.603941 0.418681
0.123365 0.603134 0.420178
0.213987 0.602526 0.423142
0.314904 0.602862 0.427503
0.415966 0.604312 0.433053
0.510615 0.607349 0.436522
0.599118 0.610388 0.439737
0.692619 0.613069 0.424362
0.785189 0.614531 0.425063
0.071775 0.696895 0.423325
0.130502 0.696087 0.425427
0.220767 0.695651 0.429410
0.322143 0.696221 0.434920
0.424568 0.697864 0.441523
0.520852 0.701442 0.445277
0.611392 0.705174 0.448743
0.699344 0.709107 0.452253
0.795275 0.713737 0.431376
0.079358 0.789981 0.429133
0.138070 0.789760 0.431976
0.228829 0.790175 0.436969
0.331695 0.791578 0.443423
0.436491 0.794069 0.450924
0.535225 0.799064 0.455305
0.628487 0.804525 0.459604
0.719515 0.810321 0.464074
0.810584 0.816383 0.468723
0.019608 0.019608 0.019608
0.023076 0.019985 0.039209
0.069216 0.022402 0.166663
0.147094 0.025293 0.261909
0.255249 0.028743 0.331315
0.377763 0.032408 0.383350
0.501043 0.035881 0.422317
0.616091 0.039175 0.450666
0.725052 0.042333 0.470111
0.024525 0.053894 0.246364
0.062044 0.062253 0.300496
0.130233 0.071381 0.358118
0.227489 0.079528 0.401696
0.337411 0.086650 0.434093
0.450086 0.092789 0.457362
0.554388 0.097302 0.473027
0.649119 0.100531 0.480799
0.739256 0.103166 0.484825
0.034468 0.155977 0.426090
0.087566 0.164485 0.442814
0.172411 0.173959 0.456813
0.270745 0.180973 0.469218
0.370517 0.185412 0.475108
0.467973 0.189322 0.479794
0.561465 0.192490 0.485651
0.652689 0.195565 0.491042
0.743933 0.198645 0.496131
0.042922 0.279432 0.482658
0.099100 0.280954 0.481896
0.185171 0.284033 0.481449
0.281421 0.288553 0.481922
0.379498 0.293473 0.487550
0.476347 0.298358 0.493178
0.569938 0.302255 0.499733
0.661988 0.305863 0.505410
0.753198 0.308821 0.509704
0.049008 0.391792 0.496912
0.106635 0.393436 0.497535
0.195475 0.396480 0.498890
0.295114 0.400749 0.501079
0.395294 0.405972 0.503969
0.490620 0.410583 0.508562
0.581105 0.413590 0.512902
0.669162 0.415763 0.515995
0.756566 0.417548 0.518400
0.056980 0.504066 0.511384
0.116443 0.505030 0.512295
0.207658 0.506154 0.513329
0.308539 0.507733 0.514801
0.408598 0.510062 0.517018
0.502275 0.513192 0.520038
0.589148 0.516228 0.523140
0.674827 0.518780 0.525744
0.760797 0.521130 0.528131
0.065131 0.604419 0.518917
0.124267 0.603642 0.519230
0.214909 0.603158 0.520426
0.315908 0.603692 0.522848
0.417086 0.605348 0.526426
0.513043 0.607951 0.530895
0.600219 0.611435 0.534569
0.692615 0.613747 0.527324
0.781649 0.616096 0.531113
0.072648 0.697370 0.523079
0.131408 0.696669 0.524243
0.221735 0.696420 0.526816
0.323242 0.697213 0.530758
0.425917 0.699077 0.535733
0.524510 0.701924 0.541474
0.614106 0.706045 0.545507
0.701066 0.710461 0.549509
0.796314 0.714936 0.535576
0.080307 0.790718 0.528761
0.139123 0.790648 0.530865
0.230070 0.791279 0.534731
0.333177 0.792908 0.539913
0.438311 0.795732 0.546214
0.540089 0.799852 0.553503
0.632657 0.805704 0.558609
0.722806 0.811907 0.563700
0.812943 0.818323 0.568963
0.019608 0.019608 0.019608
0.031086 0.020771 0.100604
0.080092 0.023368 0.248898
0.161833 0.026414 0.352590
0.270664 0.029906 0.427048
0.392501 0.033552 0.480863
0.512869 0.037079 0.520028
0.625147 0.040345 0.548185
0.731092 0.043435 0.566740
0.025544 0.057923 0.335523
0.065455 0.065678 0.394128
0.136449 0.074215 0.454785
0.235163 0.081862 0.499143
0.345176 0.088553 0.531573
0.456408 0.094254 0.554218
0.557602 0.098658 0.567760
0.649918 0.101557 0.573848
0.740189 0.104203 0.578201
0.035504 0.160236 0.523946
0.089139 0.168000 0.540144
0.174594 0.176465 0.552701
0.272627 0.182343 0.563311
0.372256 0.186211 0.568115
0.470306 0.190029 0.572862
0.562689 0.193720 0.577603
0.653911 0.196829 0.583443
0.745303 0.199893 0.589000
0.043337 0.280490 0.576658
0.099288 0.282179 0.575602
0.185428 0.285394 0.574556
0.282350 0.289894 0.574146
0.381410 0.294614 0.579714
0.479235 0.299287 0.585284
0.571686 0.303723 0.590537
0.663550 0.307224 0.596660
0.754269 0.309910 0.601101
0.049436 0.393101 0.591493
0.106744 0.394945 0.591650
0.195507 0.398185 0.592120
0.295638 0.402509 0.593086
0.396643 0.407349 0.594170
0.492827 0.411390 0.598111
0.582214 0.414594 0.601114
0.669895 0.416663 0.604712
0.757148 0.418371 0.607588
0.057626 0.505330 0.606284
0.116505 0.506255 0.606184
0.207104 0.507402 0.605601
0.307826 0.508997 0.605145
0.408384 0.511256 0.605255
0.503254 0.514210 0.606100
0.590256 0.517268 0.608964
0.675781 0.519819 0.612542
0.761711 0.522155 0.615719
0.065937 0.604815 0.612748
0.125055 0.604093 0.611965
0.215679 0.603756 0.611534
0.316745 0.604502 0.612175
0.418032 0.606340 0.613906
0.514180 0.609137 0.616600
0.601549 0.612694 0.620051
0.685811 0.616448 0.623789
0.771461 0.619991 0.627240
0.073464 0.697803 0.616497
0.132257 0.697215 0.616799
0.222647 0.697154 0.618081
0.324309 0.698163 0.620566
0.427230 0.700244 0.624048
0.526092 0.703314 0.628370
0.616852 0.707168 0.633296
0.703025 0.712057 0.637914
0.797447 0.716257 0.632372
0.081223 0.791438 0.622141
0.140139 0.791519 0.623578
0.231270 0.792361 0.626420
0.334616 0.794221 0.630452
0.440103 0.797402 0.635703
0.542216 0.801829 0.641996
0.636706 0.807166 0.648954
0.726169 0.813682 0.654782
0.815419 0.820416 0.660627
0.019786 0.019786 0.032127
0.037820 0.021688 0.186622
0.089921 0.024410 0.342409
0.175284 0.027560 0.448612
0.284666 0.031047 0.522223
0.405689 0.034660 0.575907
0.523452 0.038160 0.615260
0.632892 0.041455 0.642869
0.735763 0.044474 0.660149
0.026603 0.061643 0.431416
0.068617 0.068854 0.489300
0.142140 0.076847 0.549451
0.242022 0.084037 0.594006
0.351834 0.090339 0.626397
0.461479 0.095619 0.648174
0.560401 0.099579 0.659808
0.650802 0.102533 0.664056
0.741142 0.105215 0.668691
0.036447 0.164089 0.619108
0.090546 0.171108 0.634749
0.176362 0.178570 0.645686
0.273795 0.183357 0.653970
0.373669 0.187056 0.658559
0.472165 0.190818 0.663439
0.564994 0.194445 0.668313
0.655269 0.198012 0.673207
0.746687 0.201108 0.679129
0.043767 0.281527 0.667756
0.099575 0.283343 0.666565
0.185796 0.286662 0.665194
0.283229 0.291154 0.664262
0.383026 0.295740 0.669875
0.481583 0.300266 0.675491
0.574750 0.304554 0.680792
0.665068 0.308395 0.685258
0.755175 0.310906 0.689632
0.049918 0.394368 0.683293
0.107038 0.396353 0.683196
0.195812 0.399730 0.683139
0.296334 0.404057 0.683289
0.397755 0.408479 0.682904
0.494473 0.412080 0.686259
0.584393 0.414948 0.688741
0.670733 0.417443 0.690734
0.757699 0.419161 0.693880
0.058304 0.506403 0.698329
0.116761 0.507248 0.697418
0.206896 0.508371 0.695583
0.307470 0.509960 0.693679
0.408346 0.512172 0.692244
0.504040 0.515023 0.691528
0.591999 0.517892 0.694019
0.676846 0.520775 0.696641
0.762617 0.523162 0.700444
0.066518 0.605214 0.703646
0.125091 0.604692 0.702070
0.215119 0.604653 0.700436
0.315952 0.605658 0.699675
0.417456 0.607622 0.699844
0.514311 0.610453 0.700943
0.602821 0.613946 0.702815
0.687368 0.617766 0.706457
0.773047 0.621361 0.710885
0.074241 0.698232 0.706860
0.133033 0.697772 0.706341
0.223449 0.697917 0.706396
0.325265 0.699141 0.707485
0.428427 0.701442 0.709552
0.527575 0.704728 0.712531
0.618648 0.708791 0.716248
0.705226 0.713900 0.720979
0.791755 0.719643 0.726471
0.082134 0.792174 0.712498
0.141150 0.792406 0.713315
0.232464 0.793455 0.715202
0.336074 0.795593 0.718209
0.441910 0.799113 0.722514
0.544343 0.803825 0.727907
0.639110 0.809389 0.734050
0.729572 0.815673 0.740877
0.818026 0.822668 0.747409
0.020596 0.020596 0.116291
0.043622 0.022697 0.286559
0.098921 0.025489 0.442040
0.187512 0.028677 0.543902
0.297397 0.032161 0.616778
0.417450 0.035759 0.670964
0.532689 0.039236 0.710636
0.639520 0.042474 0.737383
0.739137 0.045462 0.752449
0.027644 0.065057 0.527170
0.071543 0.071793 0.583575
0.147371 0.079304 0.643969
0.248133 0.086086 0.689088
0.357534 0.092012 0.721201
0.465471 0.096878 0.741431
0.562038 0.100398 0.750355
0.652245 0.103281 0.754301
0.742193 0.106196 0.758605
0.037322 0.167574 0.714367
0.091799 0.173847 0.729106
0.177752 0.180308 0.737759
0.274691 0.184266 0.743794
0.374914 0.187942 0.748554
0.473773 0.191666 0.753596
0.566971 0.195247 0.758628
0.657637 0.198761 0.763674
0.748234 0.202262 0.768743
0.044210 0.282571 0.758216
0.099924 0.284488 0.756974
0.186238 0.287892 0.755421
0.284095 0.292382 0.754151
0.384494 0.296866 0.759846
0.483647 0.301281 0.765538
0.577375 0.305435 0.770869
0.667690 0.308911 0.774793
0.756131 0.311770 0.777388
0.050448 0.395623 0.774471
0.107456 0.397714 0.774219
0.196294 0.401192 0.773806
0.297043 0.405383 0.773148
0.398707 0.409446 0.771515
0.495785 0.412694 0.774321
0.586079 0.415303 0.776340
0.672828 0.417612 0.777944
0.758443 0.419873 0.779499
0.059003 0.507330 0.789464
0.117130 0.508087 0.787847
0.206885 0.509173 0.784980
0.307322 0.510754 0.781934
0.408420 0.512942 0.779314
0.504735 0.515738 0.777427
0.593417 0.518483 0.779641
0.678944 0.521226 0.782007
0.763723 0.524113 0.784593
0.067137 0.605578 0.793638
0.125292 0.605220 0.791458
0.214864 0.605431 0.788932
0.315509 0.606637 0.787113
0.417177 0.608718 0.786124
0.514579 0.611600 0.786056
0.603996 0.615067 0.786766
0.689521 0.618762 0.790229
0.774822 0.622698 0.794021
0.074842 0.698720 0.796456
0.133174 0.698510 0.795379
0.223086 0.698994 0.794561
0.324725 0.700511 0.794571
0.428066 0.703029 0.795482
0.527739 0.706445 0.797284
0.619660 0.710608 0.799925
0.707424 0.715806 0.803682
0.794353 0.721698 0.809414
0.083046 0.792949 0.802114
0.142129 0.793341 0.802349
0.233587 0.794608 0.803331
0.337454 0.797078 0.805418
0.443621 0.800923 0.808819
0.546368 0.805898 0.813331
0.641422 0.811663 0.818657
0.732149 0.818090 0.824674
0.820774 0.825089 0.831303
