rauw/Rauw/Looks/D700.cube
TITLE "iPhone 15 Leica Kleur (preview-benadering)"
LUT_3D_SIZE 5
0.019608 0.019608 0.019608
0.019608 0.019608 0.019608
0.157770 0.023548 0.023548
0.422333 0.030359 0.030359
0.676298 0.036925 0.036996
0.029822 0.130236 0.029822
0.156047 0.156807 0.035301
0.375977 0.174455 0.032102
0.571501 0.183181 0.044239
0.748711 0.190181 0.053639
0.046547 0.385848 0.053564
0.186291 0.391479 0.058417
0.388881 0.399406 0.065006
0.597469 0.405755 0.049530
0.787943 0.407646 0.051973
0.061192 0.601996 0.073149
0.203261 0.603944 0.076760
0.404563 0.606475 0.081860
0.597891 0.609337 0.086792
0.787657 0.612666 0.061071
0.076310 0.787866 0.088267
0.216551 0.790367 0.091803
0.418385 0.795580 0.096545
0.616132 0.802367 0.100889
0.803928 0.811251 0.104984
0.019608 0.019608 0.019608
0.025144 0.019944 0.025225
0.199741 0.025326 0.098132
0.456235 0.032215 0.141074
0.698248 0.038733 0.168672
0.031695 0.140602 0.141943
0.162857 0.163650 0.165099
0.364579 0.181320 0.183528
0.558163 0.188472 0.191497
0.739900 0.194682 0.198491
0.047415 0.387747 0.194590
0.193671 0.391057 0.206135
0.390183 0.400831 0.215483
0.595855 0.406874 0.203298
0.780697 0.409263 0.207970
0.062459 0.602840 0.215897
0.212127 0.601258 0.226624
0.408819 0.605008 0.232205
0.597876 0.609250 0.237661
0.786338 0.613203 0.213094
0.077542 0.788613 0.228811
0.226452 0.788084 0.240625
0.425567 0.794565 0.246499
0.620928 0.802987 0.252401
0.806535 0.813213 0.258584
0.019608 0.019608 0.019608
0.056912 0.021541 0.100179
0.238300 0.027628 0.241877
0.487712 0.034635 0.322386
0.717579 0.041144 0.367711
0.033388 0.151282 0.325494
0.169756 0.171003 0.355780
0.368081 0.184694 0.376685
0.560339 0.191144 0.387830
0.742553 0.197327 0.397226
0.048672 0.390387 0.396276
0.195971 0.394440 0.400656
0.393546 0.404179 0.410469
0.579979 0.412398 0.418826
0.755902 0.416642 0.423124
0.064251 0.603941 0.418681
0.213987 0.602526 0.423142
0.415966 0.604312 0.433053
0.599118 0.610388 0.439737
0.785189 0.614531 0.425063
0.079358 0.789981 0.429133
0.228829 0.790175 0.436969
0.436491 0.794069 0.450924
0.628487 0.804525 0.459604
0.810584 0.816383 0.468723
0.019608 0.019608 0.019608
0.080092 0.023368 0.248898
0.270664 0.029906 0.427048
0.512869 0.037079 0.520028
0.731092 0.043435 0.566740
0.035504 0.160236 0.523946
0.174594 0.176465 0.552701
0.372256 0.186211 0.568115
0.562689 0.193720 0.577603
0.745303 0.199893 0.589000
0.049436 0.393101 0.591493
0.195507 0.398185 0.592120
0.396643 0.407349 0.594170
0.582214 0.414594 0.601114
0.757148 0.418371 0.607588
0.065937 0.604815 0.612748
0.215679 0.603756 0.611534
0.418032 0.606340 0.613906
0.601549 0.612694 0.620051
0.771461 0.619991 0.627240
0.081223 0.791438 0.622141
0.231270 0.792361 0.626420
0.440103 0.797402 0.635703
0.636706 0.807166 0.648954
0.815419 0.820416 0.660627
0.020596 0.020596 0.116291
0.098921 0.025489 0.442040
0.297397 0.032161 0.616778
0.532689 0.039236 0.710636
0.739137 0.045462 0.752449
0.037322 0.167574 0.714367
0.177752 0.180308 0.737759
0.374914 0.187942 0.748554
0.566971 0.195247 0.758628
0.748234 0.202262 0.768743
0.050448 0.395623 0.774471
0.196294 0.401192 0.773806
0.398707 0.409446 0.771515
0.586079 0.415303 0.776340
0.758443 0.419873 0.779499
0.067137 0.605578 0.793638
0.214864 0.605431 0.788932
0.417177 0.608718 0.786124
0.603996 0.615067 0.786766
0.774822 0.622698 0.794021
0.083046 0.792949 0.802114
0.233587 0.794608 0.803331
0.443621 0.800923 0.808819
0.641422 0.811663 0.818657
0.820774 0.825089 0.831303
