rauw/Rauw/Looks/D700.cube
TITLE "iPhone 15 Leica Kleur (preview-benadering)"
LUT_3D_SIZE 33
0.019608 0.019608 0.019608
0.019608 0.019608 0.019608
0.019608 0.019608 0.019608
0.019608 0.019608 0.019608
0.019608 0.019608 0.019608
0.019608 0.019608 0.019608
0.019608 0.019608 0.019608
0.019608 0.019608 0.019608
0.019608 0.019608 0.019608
0.019608 0.019608 0.019608
0.019608 0.019608 0.019608
0.038096 0.020316 0.020316
0.058050 0.020903 0.020903
0.079150 0.021482 0.021482
0.102426 0.022102 0.022102
0.128791 0.022794 0.022794
0.157770 0.023548 0.023548
0.188498 0.024344 0.024344
0.220016 0.025158 0.025158
0.252099 0.025984 0.025984
0.285248 0.026838 0.026838
0.319172 0.027710 0.027710
0.353552 0.028593 0.028593
0.388056 0.029479 0.029479
0.422333 0.030359 0.030359
0.456025 0.031224 0.031224
0.488900 0.032068 0.032068
0.521180 0.032896 0.032896
0.552954 0.033711 0.033711
0.584295 0.034515 0.034515
0.615255 0.035316 0.035327
0.645898 0.036120 0.036154
0.676298 0.036925 0.036996
0.019608 0.019608 0.019608
0.019608 0.019608 0.019608
0.019608 0.019608 0.019608
0.019608 0.019608 0.019608
0.019608 0.019608 0.019608
0.019608 0.019608 0.019608
0.019608 0.019608 0.019608
0.019608 0.019608 0.019608
0.019608 0.019608 0.019608
0.019608 0.019608 0.019608
0.021709 0.019725 0.019714
0.040866 0.020512 0.020414
0.060690 0.021171 0.020997
0.081795 0.021819 0.021579
0.105206 0.022504 0.022206
0.131714 0.023254 0.022905
0.160742 0.024059 0.023663
0.191435 0.024898 0.024461
0.222837 0.025749 0.025275
0.254894 0.026612 0.026103
0.288003 0.027497 0.026958
0.321866 0.028399 0.027831
0.356168 0.029309 0.028714
0.390573 0.030219 0.029600
0.424732 0.031121 0.030479
0.458289 0.032005 0.031342
0.491040 0.032866 0.032184
0.523212 0.033711 0.033011
0.554886 0.034542 0.033824
0.586131 0.035360 0.034628
0.616997 0.036176 0.035442
0.647551 0.036992 0.036271
0.677864 0.037810 0.037114
0.019608 0.019608 0.019608
0.019608 0.019608 0.019608
0.019608 0.019608 0.019608
0.019608 0.019608 0.019608
0.019608 0.019608 0.019608
0.019608 0.019608 0.019608
0.019608 0.019608 0.019608
0.025696 0.021028 0.020036
0.039329 0.023555 0.020719
0.054340 0.025751 0.021315
0.070793 0.027722 0.021892
0.089082 0.029539 0.022484
0.109847 0.031262 0.023118
0.133476 0.032929 0.023811
0.159508 0.034551 0.024554
0.187323 0.036128 0.025335
0.216179 0.037654 0.026136
0.245672 0.039130 0.026947
0.276323 0.040577 0.027784
0.307913 0.041996 0.028640
0.340159 0.043385 0.029509
0.372761 0.044742 0.030385
0.405404 0.046060 0.031258
0.437761 0.047336 0.032122
0.469502 0.048563 0.032967
0.500589 0.049742 0.033793
0.531183 0.050880 0.034604
0.561305 0.051985 0.035420
0.591002 0.053063 0.036247
0.620326 0.054116 0.037082
0.649333 0.055143 0.037927
0.678071 0.056148 0.038780
0.706519 0.057129 0.039639
0.019608 0.019608 0.019608
0.019608 0.019608 0.019608
0.019608 0.019608 0.019608
0.019608 0.019608 0.019608
0.025403 0.023666 0.020018
0.034533 0.027650 0.020401
0.045754 0.031085 0.020735
0.058464 0.034157 0.021287
0.072500 0.036997 0.022063
0.088211 0.039650 0.022911
0.106126 0.042152 0.023774
0.126786 0.044525 0.024620
0.150053 0.046766 0.025413
0.175458 0.048885 0.026171
0.202285 0.050916 0.026954
0.229860 0.052859 0.027749
0.258391 0.054732 0.028563
0.288017 0.056547 0.029398
0.318488 0.058305 0.030250
0.349535 0.060007 0.031111
0.380874 0.061649 0.031976
0.412209 0.063230 0.032836
0.443234 0.064745 0.033684
0.473648 0.066189 0.034512
0.503439 0.067571 0.035336
0.532716 0.068901 0.036167
0.561515 0.070179 0.037004
0.589875 0.071407 0.037845
0.617835 0.072588 0.038689
0.645435 0.073721 0.039535
0.672708 0.074810 0.040382
0.699667 0.075853 0.041229
0.726078 0.076845 0.042067
0.020648 0.027267 0.020648
0.020775 0.027509 0.020681
0.025360 0.032849 0.021429
0.032479 0.037538 0.022145
0.041605 0.041716 0.022846
0.053007 0.045502 0.021645
0.065971 0.048808 0.021928
0.080653 0.051823 0.022228
0.097317 0.054602 0.022545
0.116101 0.057256 0.023169
0.136807 0.059923 0.024329
0.159406 0.062569 0.025645
0.183706 0.065145 0.026928
0.209313 0.067611 0.028104
0.235727 0.069942 0.029153
0.263301 0.072150 0.030106
0.292062 0.074239 0.030978
0.321672 0.076233 0.031822
0.351796 0.078152 0.032673
0.382165 0.079992 0.033526
0.412502 0.081751 0.034373
0.442510 0.083429 0.035216
0.471885 0.085028 0.036063
0.500592 0.086548 0.036911
0.528761 0.087993 0.037760
0.556420 0.089366 0.038608
0.583596 0.090666 0.039453
0.610318 0.091897 0.040294
0.636613 0.093057 0.041130
0.662503 0.094149 0.041959
0.688008 0.095174 0.042780
0.713031 0.096128 0.043590
0.737365 0.097007 0.044379
0.022916 0.049492 0.022916
0.023230 0.049696 0.022944
0.031654 0.054306 0.023620
0.041681 0.058523 0.024296
0.053085 0.062416 0.024974
0.065812 0.066041 0.025660
0.080750 0.069503 0.023511
0.097528 0.072545 0.023459
0.116522 0.075401 0.023790
0.138083 0.078103 0.024153
0.161870 0.080669 0.024556
0.186765 0.083247 0.025580
0.212191 0.085866 0.027040
0.237926 0.088450 0.028560
0.264426 0.090969 0.030033
0.291876 0.093403 0.031420
0.320122 0.095732 0.032701
0.348965 0.097941 0.033869
0.378163 0.100021 0.034933
0.407432 0.101976 0.035919
0.436505 0.103800 0.036834
0.465060 0.105503 0.037708
0.492875 0.107102 0.038573
0.520094 0.108602 0.039432
0.546747 0.110003 0.040282
0.572853 0.111306 0.041122
0.598433 0.112513 0.041950
0.623505 0.113624 0.042764
0.648083 0.114640 0.043564
0.672177 0.115561 0.044348
0.695787 0.116389 0.045115
0.718756 0.117118 0.045858
0.741157 0.117778 0.046582
0.025031 0.073297 0.025031
0.025476 0.073486 0.025060
0.036634 0.077814 0.025748
0.048839 0.081873 0.026437
0.062081 0.085698 0.027130
0.076506 0.089324 0.027835
0.092412 0.092782 0.028564
0.111120 0.096206 0.025723
0.132488 0.099203 0.025124
0.155885 0.102030 0.025503
0.181103 0.104718 0.025908
0.207607 0.107268 0.026331
0.234692 0.109696 0.026851
0.261637 0.112146 0.028019
0.288905 0.114616 0.029561
0.316516 0.117058 0.031219
0.344380 0.119441 0.032879
0.372370 0.121732 0.034480
0.400317 0.123907 0.035988
0.428027 0.125946 0.037390
0.455287 0.127835 0.038682
0.481890 0.129565 0.039863
0.507891 0.131137 0.040948
0.533360 0.132554 0.041946
0.558306 0.133818 0.042866
0.582738 0.134929 0.043712
0.606651 0.135894 0.044497
0.629982 0.136730 0.045254
0.652735 0.137441 0.045987
0.675304 0.138114 0.046715
0.697940 0.138794 0.047449
0.720533 0.139478 0.048186
0.743009 0.140163 0.048921
0.027283 0.099781 0.027283
0.027824 0.099968 0.027313
0.041037 0.104301 0.028034
0.054933 0.108414 0.028752
0.069672 0.112331 0.029473
0.085552 0.116074 0.030208
0.103002 0.119664 0.030970
0.122559 0.123119 0.031776
0.145335 0.126592 0.028305
0.170435 0.129571 0.026976
0.196565 0.132326 0.027386
0.223526 0.134912 0.027809
0.250817 0.137328 0.028239
0.278840 0.139593 0.028701
0.307451 0.141721 0.029250
0.335811 0.143838 0.030425
0.363747 0.145942 0.032029
0.391254 0.147990 0.033800
0.418266 0.149941 0.035593
0.444677 0.151766 0.037327
0.470351 0.153438 0.038958
0.495197 0.154941 0.040468
0.519359 0.156274 0.041864
0.542878 0.157433 0.043148
0.565774 0.158417 0.044327
0.588141 0.159247 0.045409
0.610410 0.160046 0.046423
0.632686 0.160831 0.047379
0.655016 0.161602 0.048284
0.677449 0.162360 0.049144
0.700028 0.163107 0.049965
0.722639 0.163838 0.050745
0.745193 0.164555 0.051491
0.029822 0.130236 0.029822
0.030438 0.130426 0.029854
0.045235 0.134822 0.030606
0.060452 0.138976 0.031347
0.076387 0.142907 0.032086
0.093457 0.146636 0.032837
0.112191 0.150184 0.033617
0.133116 0.153575 0.034439
0.156047 0.156807 0.035301
0.181488 0.160056 0.031479
0.208672 0.162771 0.028989
0.235640 0.165181 0.029451
0.262876 0.167400 0.029939
0.290748 0.169437 0.030454
0.319039 0.171292 0.030990
0.347526 0.172965 0.031539
0.375977 0.174455 0.032102
0.403705 0.175855 0.033111
0.430375 0.177197 0.034576
0.455988 0.178442 0.036239
0.480509 0.179557 0.037947
0.503962 0.180518 0.039618
0.526746 0.181395 0.041227
0.549231 0.182285 0.042770
0.571501 0.183181 0.044239
0.593626 0.184078 0.045634
0.615669 0.184971 0.046958
0.637689 0.185860 0.048215
0.659744 0.186742 0.049409
0.681887 0.187618 0.050547
0.704165 0.188486 0.051633
0.726462 0.189342 0.052663
0.748711 0.190181 0.053639
0.032617 0.164094 0.032617
0.033290 0.164276 0.032649
0.049292 0.168469 0.033405
0.065511 0.172395 0.034143
0.082358 0.176074 0.034875
0.100340 0.179530 0.035620
0.120036 0.182791 0.036409
0.141860 0.185880 0.037259
0.165425 0.188790 0.038162
0.190207 0.191511 0.039102
0.216558 0.194239 0.035316
0.244041 0.196435 0.031556
0.271107 0.198224 0.031837
0.298539 0.199801 0.032366
0.326189 0.201166 0.032904
0.353841 0.202321 0.033446
0.381282 0.203264 0.033983
0.408308 0.203994 0.034510
0.434744 0.204520 0.035022
0.460531 0.205037 0.035732
0.485310 0.205670 0.036916
0.509207 0.206389 0.038357
0.532505 0.207176 0.039927
0.555344 0.208011 0.041545
0.577841 0.208883 0.043164
0.600092 0.209779 0.044757
0.622182 0.210693 0.046308
0.644187 0.211620 0.047809
0.666175 0.212553 0.049257
0.688212 0.213492 0.050651
0.710350 0.214433 0.051991
0.732473 0.215369 0.053271
0.754529 0.216295 0.054487
0.035519 0.199471 0.035524
0.036235 0.199635 0.035555
0.053103 0.203370 0.036307
0.070000 0.206826 0.037051
0.087427 0.210024 0.037803
0.105959 0.212989 0.038580
0.126230 0.215747 0.039401
0.148517 0.218310 0.040276
0.172330 0.220672 0.041191
0.197119 0.222820 0.042129
0.222309 0.224742 0.043070
0.248181 0.226642 0.039506
0.275479 0.228071 0.034785
0.302482 0.229005 0.034274
0.329238 0.229687 0.034777
0.355912 0.230193 0.035279
0.382604 0.230698 0.035791
0.409207 0.231210 0.036308
0.435596 0.231726 0.036828
0.461646 0.232245 0.037346
0.487230 0.232763 0.037858
0.512287 0.233285 0.038398
0.536616 0.233888 0.039310
0.560275 0.234574 0.040536
0.583418 0.235330 0.041947
0.606171 0.236139 0.043463
0.628645 0.236992 0.045028
0.650936 0.237878 0.046608
0.673131 0.238792 0.048181
0.695309 0.239728 0.049733
0.717528 0.240680 0.051252
0.739676 0.241640 0.052722
0.761717 0.242599 0.054136
0.038127 0.234457 0.038560
0.038870 0.234593 0.038593
0.056275 0.237664 0.039360
0.073579 0.240451 0.040110
0.091343 0.242978 0.040859
0.110181 0.245265 0.041626
0.130733 0.247336 0.042434
0.153149 0.249199 0.043286
0.176890 0.250843 0.044167
0.201396 0.252254 0.045056
0.226099 0.253416 0.045935
0.250535 0.254320 0.046786
0.275926 0.255349 0.043356
0.302956 0.256217 0.038088
0.330015 0.256797 0.036580
0.356721 0.257338 0.037092
0.383469 0.257887 0.037613
0.410132 0.258441 0.038137
0.436585 0.258998 0.038661
0.462700 0.259554 0.039181
0.488348 0.260108 0.039693
0.513510 0.260657 0.040195
0.538344 0.261206 0.040689
0.562905 0.261753 0.041176
0.587095 0.262328 0.041806
0.610731 0.262982 0.042783
0.633942 0.263705 0.043996
0.656846 0.264484 0.045361
0.679547 0.265312 0.046821
0.702142 0.266181 0.048336
0.724697 0.267084 0.049877
0.747103 0.268010 0.051411
0.769340 0.268950 0.052919
0.040302 0.268134 0.041701
0.041062 0.268239 0.041734
0.058810 0.270588 0.042484
0.076337 0.272630 0.043205
0.094243 0.274389 0.043916
0.113153 0.275887 0.044638
0.133692 0.277147 0.045391
0.155925 0.278173 0.046179
0.179311 0.278982 0.046986
0.203457 0.279783 0.047820
0.227912 0.280606 0.048670
0.252297 0.281439 0.049521
0.277036 0.282294 0.050388
0.302813 0.283389 0.047191
0.330109 0.284371 0.041643
0.357621 0.285050 0.039052
0.384465 0.285641 0.039485
0.411200 0.286235 0.040007
0.437727 0.286830 0.040526
0.463915 0.287422 0.041038
0.489637 0.288009 0.041540
0.514878 0.288591 0.042030
0.539797 0.289170 0.042510
0.564448 0.289746 0.042980
0.588883 0.290319 0.043441
0.613155 0.290892 0.043892
0.637312 0.291463 0.044341
0.661165 0.292083 0.045028
0.684690 0.292771 0.045996
0.708000 0.293518 0.047163
0.731167 0.294316 0.048468
0.754087 0.295154 0.049853
0.776757 0.296023 0.051280
0.042147 0.300204 0.044841
0.042916 0.300272 0.044871
0.060817 0.301716 0.045561
0.078384 0.302832 0.046213
0.096233 0.303644 0.046846
0.115011 0.304283 0.047493
0.135413 0.304980 0.048199
0.157556 0.305743 0.048968
0.180963 0.306557 0.049784
0.205161 0.307406 0.050631
0.229673 0.308275 0.051490
0.254121 0.309151 0.052348
0.278937 0.310047 0.053219
0.304151 0.310962 0.054104
0.330230 0.312109 0.051132
0.357676 0.313184 0.045425
0.385441 0.313959 0.041935
0.412428 0.314595 0.041884
0.439041 0.315222 0.042388
0.465315 0.315846 0.042883
0.491120 0.316462 0.043364
0.516453 0.317072 0.043832
0.541469 0.317677 0.044287
0.566221 0.318277 0.044731
0.590763 0.318875 0.045163
0.615147 0.319468 0.045583
0.639428 0.320059 0.045992
0.663661 0.320648 0.046389
0.687900 0.321235 0.046776
0.712165 0.321828 0.047189
0.736228 0.322475 0.047867
0.759914 0.323170 0.048777
0.783139 0.323860 0.049847
0.043706 0.329581 0.047802
0.044477 0.329607 0.047828
0.062373 0.330225 0.048447
0.079904 0.330847 0.049057
0.097738 0.331492 0.049679
0.116545 0.332179 0.050337
0.136991 0.332927 0.051054
0.159187 0.333738 0.051832
0.182657 0.334597 0.052654
0.206923 0.335490 0.053504
0.231506 0.336399 0.054364
0.256032 0.337314 0.055220
0.280939 0.338246 0.056087
0.306251 0.339196 0.056963
0.331849 0.340158 0.057844
0.358141 0.341339 0.055084
0.385624 0.342487 0.049317
0.413454 0.343348 0.045116
0.440557 0.344028 0.044203
0.466930 0.344676 0.044668
0.492831 0.345317 0.045119
0.518268 0.345949 0.045554
0.543394 0.346575 0.045974
0.568261 0.347195 0.046380
0.592923 0.347810 0.046771
0.617433 0.348421 0.047149
0.641845 0.349027 0.047514
0.666216 0.349630 0.047864
0.690558 0.350205 0.048199
0.714837 0.350716 0.048526
0.739052 0.351171 0.048849
0.763043 0.351573 0.049168
0.786707 0.351940 0.049560
0.045129 0.357609 0.050668
0.045900 0.357638 0.050695
0.063818 0.358310 0.051323
0.081376 0.358984 0.051940
0.099244 0.359678 0.052568
0.118098 0.360411 0.053231
0.138605 0.361204 0.053950
0.160873 0.362057 0.054728
0.184421 0.362956 0.055548
0.208772 0.363886 0.056393
0.233441 0.364830 0.057244
0.258059 0.365777 0.058088
0.283074 0.366740 0.058940
0.308500 0.367718 0.059798
0.334216 0.368707 0.060657
0.360103 0.369702 0.061512
0.386511 0.370901 0.058948
0.413919 0.372099 0.053198
0.441644 0.373032 0.048455
0.468764 0.373757 0.046450
0.494807 0.374416 0.046754
0.520364 0.375065 0.047145
0.545613 0.375706 0.047518
0.570609 0.376340 0.047875
0.595402 0.376965 0.048216
0.619966 0.377536 0.048544
0.644307 0.378041 0.048867
0.668480 0.378485 0.049186
0.692536 0.378876 0.049502
0.716529 0.379218 0.049816
0.740466 0.379517 0.050128
0.764192 0.379776 0.050437
0.787683 0.379997 0.050741
0.046547 0.385848 0.053564
0.047321 0.385879 0.053592
0.065274 0.386598 0.054221
0.082873 0.387316 0.054839
0.100790 0.388053 0.055466
0.119705 0.388827 0.056126
0.140289 0.389658 0.056839
0.162646 0.390547 0.057609
0.186291 0.391479 0.058417
0.210742 0.392439 0.059246
0.235513 0.393412 0.060078
0.260240 0.394386 0.060900
0.285378 0.395373 0.061726
0.310933 0.396373 0.062555
0.336783 0.397381 0.063381
0.362807 0.398393 0.064200
0.388881 0.399406 0.065006
0.415305 0.400607 0.062618
0.442523 0.401832 0.056952
0.469978 0.402820 0.051814
0.496892 0.403590 0.048881
0.522760 0.404243 0.048558
0.548016 0.404816 0.048887
0.572901 0.405318 0.049211
0.597469 0.405755 0.049530
0.621771 0.406136 0.049844
0.645860 0.406464 0.050155
0.669790 0.406747 0.050463
0.693612 0.406990 0.050768
0.717380 0.407197 0.051073
0.741104 0.407374 0.051376
0.764633 0.407523 0.051676
0.787943 0.407646 0.051973
0.048002 0.414139 0.056443
0.048777 0.414171 0.056470
0.066781 0.414931 0.057094
0.084433 0.415687 0.057704
0.102413 0.416459 0.058323
0.121404 0.417267 0.058972
0.142082 0.418129 0.059672
0.164544 0.419047 0.060423
0.188302 0.420006 0.061209
0.212871 0.420990 0.062012
0.237758 0.421984 0.062814
0.262609 0.422977 0.063603
0.287887 0.423981 0.064393
0.313587 0.424996 0.065182
0.339588 0.426017 0.065964
0.365765 0.427040 0.066734
0.391994 0.428061 0.067489
0.418147 0.429075 0.068222
0.444420 0.430227 0.065999
0.471158 0.431354 0.060489
0.497904 0.432209 0.055126
0.524191 0.432793 0.051488
0.549668 0.433196 0.050203
0.574338 0.433518 0.050492
0.598691 0.433790 0.050799
0.622788 0.434019 0.051103
0.646680 0.434211 0.051404
0.670422 0.434370 0.051703
0.694066 0.434502 0.052000
0.717663 0.434611 0.052297
0.741232 0.434702 0.052594
0.764624 0.434774 0.052888
0.787813 0.434832 0.053180
0.049532 0.442319 0.059254
0.050310 0.442353 0.059280
0.068377 0.443145 0.059891
0.086096 0.443931 0.060488
0.104151 0.444732 0.061090
0.123232 0.445567 0.061720
0.144019 0.446454 0.062397
0.166603 0.447393 0.063121
0.190491 0.448371 0.063875
0.215192 0.449371 0.064641
0.240212 0.450378 0.065402
0.265203 0.451383 0.066149
0.290636 0.452398 0.066891
0.316497 0.453420 0.067629
0.342657 0.454441 0.068356
0.368916 0.455402 0.069078
0.395119 0.456288 0.069792
0.421135 0.457104 0.070496
0.446832 0.457851 0.071187
0.472420 0.458705 0.069167
0.498262 0.459574 0.063911
0.524173 0.460228 0.058455
0.549877 0.460647 0.054293
0.575009 0.460890 0.052127
0.599322 0.461042 0.052026
0.623263 0.461162 0.052322
0.647010 0.461257 0.052616
0.670614 0.461331 0.052908
0.694128 0.461390 0.053200
0.717605 0.461436 0.053491
0.741069 0.461474 0.053784
0.764377 0.461505 0.054074
0.787495 0.461530 0.054363
0.051174 0.470221 0.061950
0.051955 0.470256 0.061976
0.070098 0.471072 0.062566
0.087897 0.471882 0.063141
0.106040 0.472704 0.063719
0.125223 0.473558 0.064322
0.146135 0.474462 0.064967
0.168855 0.475415 0.065655
0.192888 0.476404 0.066366
0.217738 0.477412 0.067086
0.242904 0.478426 0.067797
0.268029 0.479412 0.068492
0.293528 0.480332 0.069190
0.319363 0.481187 0.069892
0.345401 0.481982 0.070593
0.371507 0.482719 0.071292
0.397552 0.483401 0.071985
0.423407 0.484030 0.072669
0.448946 0.484608 0.073342
0.474043 0.485136 0.073999
0.498876 0.485776 0.072185
0.523945 0.486469 0.067200
0.549217 0.487000 0.061725
0.574416 0.487328 0.057197
0.599235 0.487490 0.054347
0.623399 0.487555 0.053505
0.647044 0.487591 0.053792
0.670555 0.487618 0.054080
0.693986 0.487639 0.054368
0.717388 0.487657 0.054657
0.740792 0.487677 0.054946
0.764061 0.487697 0.055235
0.787155 0.487720 0.055523
0.052960 0.497672 0.064487
0.053744 0.497708 0.064512
0.071975 0.498541 0.065075
0.089864 0.499367 0.065620
0.108107 0.500204 0.066167
0.127406 0.501070 0.066735
0.148455 0.501983 0.067341
0.171326 0.502942 0.067982
0.195479 0.503882 0.068648
0.220380 0.504763 0.069328
0.245512 0.505577 0.070007
0.270539 0.506323 0.070679
0.295929 0.507019 0.071356
0.321643 0.507671 0.072037
0.347551 0.508281 0.072719
0.373523 0.508850 0.073400
0.399434 0.509381 0.074077
0.425158 0.509874 0.074746
0.450572 0.510331 0.075404
0.475555 0.510754 0.076050
0.499989 0.511142 0.076679
0.524177 0.511648 0.075047
0.548677 0.512240 0.070314
0.573426 0.512712 0.064881
0.598210 0.513011 0.060111
0.622774 0.513159 0.056743
0.646875 0.513208 0.055152
0.670403 0.513223 0.055221
0.693790 0.513239 0.055507
0.717158 0.513261 0.055795
0.740544 0.513292 0.056084
0.763814 0.513331 0.056373
0.786922 0.513381 0.056661
0.054927 0.524697 0.066843
0.055716 0.524733 0.066866
0.074046 0.525581 0.067394
0.092036 0.526420 0.067904
0.110378 0.527259 0.068419
0.129758 0.528050 0.068955
0.150854 0.528807 0.069530
0.173711 0.529538 0.070147
0.197808 0.530237 0.070791
0.222632 0.530897 0.071450
0.247675 0.531509 0.072110
0.272603 0.532071 0.072764
0.297886 0.532601 0.073424
0.323488 0.533103 0.074090
0.349281 0.533579 0.074758
0.375140 0.534029 0.075425
0.400941 0.534454 0.076090
0.426562 0.534856 0.076748
0.451884 0.535235 0.077397
0.476787 0.535592 0.078034
0.501156 0.535925 0.078656
0.525017 0.536241 0.079264
0.548749 0.536682 0.077787
0.572799 0.537231 0.073289
0.597141 0.537697 0.067935
0.621608 0.538017 0.063009
0.645988 0.538201 0.059247
0.670071 0.538288 0.057055
0.693669 0.538332 0.056625
0.717040 0.538383 0.056912
0.740442 0.538448 0.057202
0.763737 0.538521 0.057492
0.786866 0.538597 0.057781
0.057076 0.551405 0.069033
0.057868 0.551439 0.069055
0.076248 0.552180 0.069562
0.094254 0.552832 0.070053
0.112585 0.553421 0.070547
0.131939 0.553971 0.071063
0.152996 0.554508 0.071619
0.175796 0.555039 0.072217
0.199822 0.555556 0.072845
0.224564 0.556050 0.073487
0.249521 0.556515 0.074133
0.274357 0.556945 0.074773
0.299541 0.557358 0.075421
0.325044 0.557757 0.076074
0.350739 0.558144 0.076732
0.376506 0.558518 0.077391
0.402222 0.558880 0.078047
0.427769 0.559230 0.078698
0.453028 0.559568 0.079341
0.477883 0.559895 0.079974
0.502219 0.560209 0.080593
0.526050 0.560514 0.081199
0.549521 0.560816 0.081796
0.572902 0.561249 0.080457
0.596615 0.561807 0.076180
0.620660 0.562311 0.070925
0.644909 0.562695 0.065900
0.669186 0.562955 0.061833
0.693296 0.563111 0.059150
0.717061 0.563206 0.058088
0.740483 0.563291 0.058309
0.763785 0.563383 0.058599
0.786929 0.563484 0.058889
0.059175 0.577196 0.071131
0.059967 0.577219 0.071153
0.078340 0.577720 0.071640
0.096326 0.578153 0.072112
0.114626 0.578542 0.072589
0.133937 0.578912 0.073089
0.154936 0.579286 0.073630
0.177666 0.579670 0.074214
0.201614 0.580057 0.074828
0.226275 0.580437 0.075459
0.251153 0.580801 0.076094
0.275909 0.581145 0.076725
0.301007 0.581485 0.077363
0.326425 0.581823 0.078009
0.352044 0.582160 0.078660
0.377740 0.582497 0.079313
0.403397 0.582832 0.079965
0.428896 0.583165 0.080613
0.454121 0.583497 0.081254
0.478956 0.583826 0.081885
0.503286 0.584152 0.082504
0.527116 0.584477 0.083111
0.550595 0.584806 0.083709
0.573774 0.585143 0.084301
0.596899 0.585608 0.083086
0.620361 0.586200 0.079012
0.644181 0.586749 0.073861
0.668262 0.587187 0.068774
0.692456 0.587504 0.064464
0.716604 0.587719 0.061374
0.740541 0.587870 0.059769
0.763987 0.588001 0.059697
0.787169 0.588141 0.059988
0.061192 0.601996 0.073149
0.061983 0.602011 0.073169
0.080333 0.602333 0.073641
0.098287 0.602605 0.074100
0.116545 0.602851 0.074563
0.135804 0.603093 0.075051
0.156735 0.603355 0.075581
0.179391 0.603641 0.076155
0.203261 0.603944 0.076760
0.227848 0.604253 0.077383
0.252659 0.604560 0.078011
0.277348 0.604858 0.078635
0.302375 0.605163 0.079269
0.327729 0.605478 0.079911
0.353291 0.605802 0.080558
0.378941 0.606135 0.081209
0.404563 0.606475 0.081860
0.430040 0.606824 0.082507
0.455257 0.607179 0.083149
0.480097 0.607539 0.083782
0.504447 0.607902 0.084404
0.528292 0.608262 0.085013
0.551781 0.608619 0.085613
0.574964 0.608976 0.086206
0.597891 0.609337 0.086792
0.620798 0.609820 0.085685
0.644064 0.610440 0.081792
0.667725 0.611038 0.076745
0.691710 0.611543 0.071620
0.715898 0.611940 0.067119
0.740145 0.612239 0.063691
0.764147 0.612469 0.061628
0.787657 0.612666 0.061071
0.063148 0.626039 0.075105
0.063938 0.626048 0.075125
0.082253 0.626245 0.075586
0.100168 0.626407 0.076034
0.118381 0.626558 0.076488
0.137584 0.626720 0.076968
0.158447 0.626914 0.077490
0.181030 0.627146 0.078057
0.204830 0.627405 0.078656
0.229352 0.627684 0.079274
0.254109 0.627970 0.079899
0.278748 0.628258 0.080521
0.303722 0.628563 0.081152
0.329033 0.628887 0.081793
0.354560 0.629229 0.082440
0.380188 0.629589 0.083092
0.405799 0.629964 0.083744
0.431276 0.630352 0.084394
0.456495 0.630739 0.085038
0.481340 0.631125 0.085673
0.505694 0.631508 0.086295
0.529543 0.631888 0.086905
0.553041 0.632271 0.087507
0.576239 0.632660 0.088102
0.599188 0.633057 0.088691
0.621937 0.633464 0.089277
0.644708 0.633993 0.088266
0.667864 0.634667 0.084536
0.691465 0.635333 0.079580
0.715463 0.635920 0.074420
0.739754 0.636405 0.069738
0.764050 0.636792 0.066014
0.788095 0.637104 0.063535
0.065059 0.649536 0.077016
0.065848 0.649542 0.077036
0.084124 0.649661 0.077489
0.101999 0.649760 0.077931
0.120166 0.649859 0.078380
0.139315 0.649981 0.078854
0.160114 0.650148 0.079372
0.182633 0.650363 0.079936
0.206373 0.650616 0.080532
0.230845 0.650898 0.081149
0.255564 0.651198 0.081773
0.280171 0.651508 0.082395
0.305113 0.651844 0.083027
0.330400 0.652206 0.083670
0.355912 0.652586 0.084320
0.381525 0.652977 0.084972
0.407122 0.653376 0.085626
0.432587 0.653781 0.086276
0.457803 0.654193 0.086921
0.482655 0.654607 0.087558
0.507027 0.655024 0.088182
0.530898 0.655443 0.088795
0.554421 0.655869 0.089400
0.577651 0.656304 0.089999
0.600639 0.656750 0.090591
0.623446 0.657206 0.091170
0.646119 0.657674 0.091739
0.668871 0.658261 0.090787
