rauw/Rauw/Looks/TriX.cube
TITLE "Tri-X 400 (preview-benadering, iets zachter)"
LUT_3D_SIZE 5
0.033643 0.021672 0.003715
0.070144 0.058452 0.040914
0.116327 0.105370 0.088936
0.179467 0.170070 0.155973
0.255215 0.248228 0.237748
0.079266 0.067688 0.050321
0.129955 0.119287 0.103285
0.196100 0.187194 0.173835
0.275258 0.268958 0.259507
0.362990 0.359622 0.354570
0.144383 0.134051 0.118553
0.213298 0.204926 0.192370
0.295808 0.290214 0.281823
0.383106 0.380347 0.376208
0.469386 0.468670 0.467597
0.231265 0.223476 0.211792
0.316607 0.311723 0.304397
0.403276 0.401085 0.397798
0.489943 0.489538 0.488929
0.579768 0.579768 0.579768
0.337400 0.333211 0.326928
0.423518 0.421847 0.419341
0.510624 0.510446 0.510179
0.601238 0.601238 0.601238
0.687856 0.687856 0.687856
0.059496 0.047694 0.029990
0.100519 0.089268 0.072390
0.159551 0.149604 0.134683
0.231265 0.223476 0.211792
0.316607 0.311723 0.304397
0.113051 0.102030 0.085499
0.175404 0.165890 0.151620
0.250313 0.243160 0.232431
0.337400 0.333211 0.326928
0.423518 0.421847 0.419341
0.191887 0.182854 0.169304
0.270190 0.263715 0.254003
0.357929 0.354403 0.349113
0.443843 0.442637 0.440829
0.531522 0.531482 0.531422
0.290637 0.284866 0.276208
0.378074 0.375166 0.370803
0.464264 0.463459 0.462252
0.552852 0.552852 0.552852
0.643285 0.643285 0.643285
0.398228 0.395898 0.392405
0.484793 0.484317 0.483603
0.574383 0.574383 0.574383
0.663523 0.663523 0.663523
0.743415 0.743415 0.743415
0.086678 0.075204 0.057992
0.140704 0.130284 0.114653
0.208948 0.200439 0.187676
0.290637 0.284866 0.276208
0.378074 0.375166 0.370803
0.155692 0.145645 0.130573
0.226664 0.218723 0.206813
0.311398 0.306337 0.298746
0.398228 0.395898 0.392405
0.484793 0.484317 0.483603
0.245463 0.238147 0.227172
0.332216 0.327856 0.321316
0.418450 0.416654 0.413961
0.505442 0.505215 0.504875
0.595886 0.595886 0.595886
0.352836 0.349148 0.343615
0.438753 0.437437 0.435463
0.526255 0.526189 0.526091
0.617191 0.617191 0.617191
0.702103 0.702103 0.702103
0.459149 0.458250 0.456903
0.547485 0.547485 0.547483
0.638128 0.638128 0.638128
0.720728 0.720728 0.720728
0.795170 0.795170 0.795170
0.123037 0.112219 0.095992
0.187710 0.178552 0.164816
0.265157 0.258510 0.248539
0.352836 0.349148 0.343615
0.438753 0.437437 0.435463
0.204631 0.195987 0.183022
0.285486 0.279537 0.270614
0.373045 0.369986 0.365397
0.459149 0.458250 0.456903
0.547485 0.547485 0.547483
0.306192 0.300954 0.293097
0.393183 0.390713 0.387008
0.479650 0.479099 0.478273
0.568996 0.568996 0.568996
0.658527 0.658527 0.658527
0.413387 0.411463 0.408576
0.500268 0.499987 0.499565
0.590522 0.590522 0.590522
0.678227 0.678227 0.678227
0.756710 0.756710 0.756710
0.521019 0.520922 0.520776
0.611893 0.611893 0.611893
0.697380 0.697380 0.697380
0.774068 0.774068 0.774068
0.843669 0.843669 0.843669
0.167395 0.157659 0.143054
0.240669 0.233192 0.221977
0.327020 0.322487 0.315687
0.413387 0.411463 0.408576
0.500268 0.499987 0.499565
0.260164 0.253346 0.243119
0.347714 0.343861 0.338082
0.433669 0.432238 0.430093
0.521019 0.520922 0.520776
0.611893 0.611893 0.611893
0.368019 0.364807 0.359988
0.454041 0.453044 0.451549
0.542139 0.542132 0.542121
0.632938 0.632938 0.632938
0.716111 0.716111 0.716111
0.474514 0.473883 0.472937
0.563610 0.563610 0.563610
0.653487 0.653487 0.653487
0.734419 0.734419 0.734419
0.807515 0.807515 0.807515
0.585149 0.585149 0.585149
0.673372 0.673372 0.673372
0.752305 0.752305 0.752305
0.823735 0.823735 0.823735
0.888553 0.888553 0.888553
