rauw/Rauw/Looks/TriX.cube
TITLE "Tri-X 400 (preview-benadering, iets zachter)"
LUT_3D_SIZE 9
0.033643 0.021672 0.003715
0.052221 0.040357 0.022559
0.070144 0.058452 0.040914
0.090615 0.079200 0.062079
0.116327 0.105370 0.088936
0.146239 0.135953 0.120523
0.179467 0.170070 0.155973
0.215485 0.207183 0.194731
0.255215 0.248228 0.237748
0.056377 0.044547 0.026801
0.074614 0.062976 0.045518
0.096143 0.084817 0.067828
0.123037 0.112219 0.095992
0.153780 0.143682 0.128537
0.187710 0.178552 0.164816
0.224390 0.216375 0.204354
0.265157 0.258510 0.248539
0.308794 0.303645 0.295921
0.079266 0.067688 0.050321
0.102026 0.090800 0.073962
0.129955 0.119287 0.103285
0.161496 0.151601 0.136757
0.196100 0.187194 0.173835
0.233592 0.225880 0.214311
0.275258 0.268958 0.259507
0.319212 0.314416 0.307222
0.362990 0.359622 0.354570
0.108241 0.097128 0.080458
0.137073 0.126567 0.110808
0.169382 0.159700 0.145178
0.204631 0.195987 0.183022
0.243059 0.235662 0.224566
0.285486 0.279537 0.270614
0.329620 0.325173 0.318503
0.373045 0.369986 0.365397
0.415918 0.414058 0.411269
0.144383 0.134051 0.118553
0.177431 0.167975 0.153791
0.213298 0.204926 0.192370
0.252758 0.245688 0.235083
0.295808 0.290214 0.281823
0.339986 0.335882 0.329726
0.383106 0.380347 0.376208
0.426053 0.424444 0.422031
0.469386 0.468670 0.467597
0.185635 0.176416 0.162588
0.222134 0.214047 0.201915
0.262655 0.255922 0.245823
0.306192 0.300954 0.293097
0.350278 0.346508 0.340853
0.393183 0.390713 0.387008
0.436210 0.434837 0.432778
0.479650 0.479099 0.478273
0.523633 0.523552 0.523431
0.231265 0.223476 0.211792
0.272720 0.266332 0.256750
0.316607 0.311723 0.304397
0.360464 0.357017 0.351847
0.403276 0.401085 0.397798
0.446390 0.445238 0.443510
0.489943 0.489538 0.488929
0.534166 0.534137 0.534093
0.579768 0.579768 0.579768
0.282919 0.276882 0.267826
0.327020 0.322487 0.315687
0.370531 0.367396 0.362693
0.413387 0.411463 0.408576
0.456594 0.455647 0.454226
0.500268 0.499987 0.499565
0.544809 0.544806 0.544802
0.590522 0.590522 0.590522
0.635537 0.635537 0.635537
0.337400 0.333211 0.326928
0.380590 0.377756 0.373506
0.423518 0.421847 0.419341
0.466824 0.466064 0.464925
0.510624 0.510446 0.510179
0.555539 0.555539 0.555539
0.601238 0.601238 0.601238
0.645850 0.645850 0.645850
0.687856 0.687856 0.687856
0.046971 0.035068 0.017214
0.064750 0.052999 0.035373
0.084143 0.072632 0.055366
0.108241 0.097128 0.080458
0.137073 0.126567 0.110808
0.169382 0.159700 0.145178
0.204631 0.195987 0.183022
0.243059 0.235662 0.224566
0.285486 0.279537 0.270614
0.069050 0.057346 0.039789
0.089284 0.077849 0.060696
0.114682 0.103693 0.087210
0.144383 0.134051 0.118553
0.177431 0.167975 0.153791
0.213298 0.204926 0.192370
0.252758 0.245688 0.235083
0.295808 0.290214 0.281823
0.339986 0.335882 0.329726
0.094729 0.083380 0.066356
0.121340 0.110486 0.094206
0.151878 0.141732 0.126514
0.185635 0.176416 0.162588
0.222134 0.214047 0.201915
0.262655 0.255922 0.245823
0.306192 0.300954 0.293097
0.350278 0.346508 0.340853
0.393183 0.390713 0.387008
0.128207 0.117500 0.101440
0.159551 0.149604 0.134683
0.193989 0.185019 0.171564
0.231265 0.223476 0.211792
0.272720 0.266332 0.256750
0.316607 0.311723 0.304397
0.360464 0.357017 0.351847
0.403276 0.401085 0.397798
0.446390 0.445238 0.443510
0.167395 0.157659 0.143054
0.202486 0.193775 0.180710
0.240669 0.233192 0.221977
0.282919 0.276882 0.267826
0.327020 0.322487 0.315687
0.370531 0.367396 0.362693
0.413387 0.411463 0.408576
0.456594 0.455647 0.454226
0.500268 0.499987 0.499565
0.211119 0.202678 0.190018
0.250313 0.243160 0.232431
0.293220 0.287538 0.279013
0.337400 0.333211 0.326928
0.380590 0.377756 0.373506
0.423518 0.421847 0.419341
0.466824 0.466064 0.464925
0.510624 0.510446 0.510179
0.555539 0.555539 0.555539
0.260164 0.253346 0.243119
0.303592 0.298265 0.290275
0.347714 0.343861 0.338082
0.390662 0.388121 0.384309
0.433669 0.432238 0.430093
0.477081 0.476491 0.475606
0.521019 0.520922 0.520776
0.566303 0.566303 0.566303
0.611893 0.611893 0.611893
0.314002 0.309030 0.301572
0.357929 0.354403 0.349113
0.400751 0.398492 0.395102
0.443843 0.442637 0.440829
0.487367 0.486927 0.486267
0.531522 0.531482 0.531422
0.577076 0.577076 0.577076
0.622467 0.622467 0.622467
0.666004 0.666004 0.666004
0.368019 0.364807 0.359988
0.410858 0.408868 0.405883
0.454041 0.453044 0.451549
0.497684 0.497373 0.496908
0.542139 0.542132 0.542121
0.587837 0.587837 0.587837
0.632938 0.632938 0.632938
0.675803 0.675803 0.675803
0.716111 0.716111 0.716111
0.059496 0.047694 0.029990
0.078084 0.066490 0.049099
0.100519 0.089268 0.072390
0.128207 0.117500 0.101440
0.159551 0.149604 0.134683
0.193989 0.185019 0.171564
0.231265 0.223476 0.211792
0.272720 0.266332 0.256750
0.316607 0.311723 0.304397
0.082901 0.071372 0.054079
0.106665 0.095523 0.078810
0.135275 0.124727 0.108906
0.167395 0.157659 0.143054
0.202486 0.193775 0.180710
0.240669 0.233192 0.221977
0.282919 0.276882 0.267826
0.327020 0.322487 0.315687
0.370531 0.367396 0.362693
0.113051 0.102030 0.085499
0.142538 0.132161 0.116596
0.175404 0.165890 0.151620
0.211119 0.202678 0.190018
0.250313 0.243160 0.232431
0.293220 0.287538 0.279013
0.337400 0.333211 0.326928
0.380590 0.377756 0.373506
0.423518 0.421847 0.419341
0.149987 0.139794 0.124504
0.183570 0.174291 0.160372
0.219898 0.211738 0.199499
0.260164 0.253346 0.243119
0.303592 0.298265 0.290275
0.347714 0.343861 0.338082
0.390662 0.388121 0.384309
0.433669 0.432238 0.430093
0.477081 0.476491 0.475606
0.191887 0.182854 0.169304
0.228956 0.221091 0.209293
0.270190 0.263715 0.254003
0.314002 0.309030 0.301572
0.357929 0.354403 0.349113
0.400751 0.398492 0.395102
0.443843 0.442637 0.440829
0.487367 0.486927 0.486267
0.531522 0.531482 0.531422
0.238294 0.230738 0.219404
0.280358 0.274233 0.265045
0.324419 0.319798 0.312868
0.368019 0.364807 0.359988
0.410858 0.408868 0.405883
0.454041 0.453044 0.451549
0.497684 0.497373 0.496908
0.542139 0.542132 0.542121
0.587837 0.587837 0.587837
0.290637 0.284866 0.276208
0.334810 0.330536 0.324124
0.378074 0.375166 0.370803
0.420983 0.419250 0.416651
0.464264 0.463459 0.462252
0.508032 0.507830 0.507528
0.552852 0.552852 0.552852
0.598564 0.598564 0.598564
0.643285 0.643285 0.643285
0.345143 0.341207 0.335304
0.388143 0.385529 0.381609
0.431129 0.429640 0.427406
0.474514 0.473883 0.472937
0.518414 0.518298 0.518125
0.563610 0.563610 0.563610
0.609236 0.609236 0.609236
0.653487 0.653487 0.653487
0.695009 0.695009 0.695009
0.398228 0.395898 0.392405
0.441297 0.440037 0.438146
0.484793 0.484317 0.483603
0.528885 0.528833 0.528754
0.574383 0.574383 0.574383
0.619832 0.619832 0.619832
0.663523 0.663523 0.663523
0.704454 0.704454 0.704454
0.743415 0.743415 0.743415
0.072358 0.060693 0.043194
0.093337 0.081965 0.064908
0.119656 0.108767 0.092434
0.149987 0.139794 0.124504
0.183570 0.174291 0.160372
0.219898 0.211738 0.199499
0.260164 0.253346 0.243119
0.303592 0.298265 0.290275
0.347714 0.343861 0.338082
0.099037 0.087760 0.070844
0.126471 0.115726 0.099609
0.157616 0.147618 0.132622
0.191887 0.182854 0.169304
0.228956 0.221091 0.209293
0.270190 0.263715 0.254003
0.314002 0.309030 0.301572
0.357929 0.354403 0.349113
0.400751 0.398492 0.395102
0.133490 0.122901 0.107018
0.165418 0.155628 0.140943
0.200348 0.191572 0.178408
0.238294 0.230738 0.219404
0.280358 0.274233 0.265045
0.324419 0.319798 0.312868
0.368019 0.364807 0.359988
0.410858 0.408868 0.405883
0.454041 0.453044 0.451549
0.173387 0.163816 0.149461
0.208948 0.200439 0.187676
0.247881 0.240646 0.229794
0.290637 0.284866 0.276208
0.334810 0.330536 0.324124
0.378074 0.375166 0.370803
0.420983 0.419250 0.416651
0.464264 0.463459 0.462252
0.508032 0.507830 0.507528
0.217682 0.209451 0.197104
0.257684 0.250781 0.240427
0.300994 0.295578 0.287454
0.345143 0.341207 0.335304
0.388143 0.385529 0.381609
0.431129 0.429640 0.427406
0.474514 0.473883 0.472937
0.518414 0.518298 0.518125
0.563610 0.563610 0.563610
0.267669 0.261108 0.251266
0.311398 0.306337 0.298746
0.355387 0.351779 0.346369
0.398228 0.395898 0.392405
0.441297 0.440037 0.438146
0.484793 0.484317 0.483603
0.528885 0.528833 0.528754
0.574383 0.574383 0.574383
0.619832 0.619832 0.619832
0.321816 0.317108 0.310046
0.365507 0.362217 0.357283
0.408329 0.406273 0.403189
0.451489 0.450441 0.448870
0.495102 0.494761 0.494250
0.539475 0.539462 0.539443
0.585149 0.585149 0.585149
0.630331 0.630331 0.630331
0.673372 0.673372 0.673372
0.375559 0.372575 0.368100
0.418450 0.416654 0.413961
0.461706 0.460855 0.459578
0.505442 0.505215 0.504875
0.550167 0.550167 0.550167
0.595886 0.595886 0.595886
0.640711 0.640711 0.640711
0.683055 0.683055 0.683055
0.723026 0.723026 0.723026
0.428591 0.427042 0.424719
0.471949 0.471276 0.470268
0.515815 0.515680 0.515478
0.560918 0.560918 0.560918
0.606574 0.606574 0.606574
0.650952 0.650952 0.650952
0.692631 0.692631 0.692631
0.732154 0.732154 0.732154
0.769768 0.769768 0.769768
0.086678 0.075204 0.057992
0.111434 0.100381 0.083803
0.140704 0.130284 0.114653
0.173387 0.163816 0.149461
0.208948 0.200439 0.187676
0.247881 0.240646 0.229794
0.290637 0.284866 0.276208
0.334810 0.330536 0.324124
0.378074 0.375166 0.370803
0.117984 0.107062 0.090677
0.148107 0.137867 0.122507
0.181514 0.172175 0.158167
0.217682 0.209451 0.197104
0.257684 0.250781 0.240427
0.300994 0.295578 0.287454
0.345143 0.341207 0.335304
0.388143 0.385529 0.381609
0.431129 0.429640 0.427406
0.155692 0.145645 0.130573
0.189794 0.180698 0.167054
0.226664 0.218723 0.206813
0.267669 0.261108 0.251266
0.311398 0.306337 0.298746
0.355387 0.351779 0.346369
0.398228 0.395898 0.392405
0.441297 0.440037 0.438146
0.484793 0.484317 0.483603
0.198220 0.189378 0.176116
0.235935 0.228300 0.216848
0.277805 0.271592 0.262272
0.321816 0.317108 0.310046
0.365507 0.362217 0.357283
0.408329 0.406273 0.403189
0.451489 0.450441 0.448870
0.495102 0.494761 0.494250
0.539475 0.539462 0.539443
0.245463 0.238147 0.227172
0.288059 0.282199 0.273408
0.332216 0.327856 0.321316
0.375559 0.372575 0.368100
0.418450 0.416654 0.413961
0.461706 0.460855 0.459578
0.505442 0.505215 0.504875
0.550167 0.550167 0.550167
0.595886 0.595886 0.595886
0.298399 0.292895 0.284637
0.342567 0.338547 0.332518
0.385624 0.382938 0.378909
0.428591 0.427042 0.424719
0.471949 0.471276 0.470268
0.515815 0.515680 0.515478
0.560918 0.560918 0.560918
0.606574 0.606574 0.606574
0.650952 0.650952 0.650952
0.352836 0.349148 0.343615
0.395705 0.393306 0.389707
0.438753 0.437437 0.435463
0.482220 0.481708 0.480939
0.526255 0.526189 0.526091
0.571690 0.571690 0.571690
0.617191 0.617191 0.617191
0.661031 0.661031 0.661031
0.702103 0.702103 0.702103
0.405802 0.403679 0.400494
0.448939 0.447840 0.446191
0.492522 0.492149 0.491590
0.536817 0.536797 0.536766
0.582459 0.582459 0.582459
0.627716 0.627716 0.627716
0.670928 0.670928 0.670928
0.711468 0.711468 0.711468
0.750092 0.750092 0.750092
0.459149 0.458250 0.456903
0.502854 0.502600 0.502220
0.547485 0.547485 0.547483
0.593206 0.593206 0.593206
0.638128 0.638128 0.638128
0.680644 0.680644 0.680644
0.720728 0.720728 0.720728
0.758903 0.758903 0.758903
0.795170 0.795170 0.795170
0.103556 0.092358 0.075560
0.131716 0.121087 0.105144
0.163452 0.153609 0.138844
0.198220 0.189378 0.176116
0.235935 0.228300 0.216848
0.277805 0.271592 0.262272
0.321816 0.317108 0.310046
0.365507 0.362217 0.357283
0.408329 0.406273 0.403189
0.138882 0.128419 0.112723
0.171379 0.161753 0.147313
0.206785 0.198209 0.185344
0.245463 0.238147 0.227172
0.288059 0.282199 0.273408
0.332216 0.327856 0.321316
0.375559 0.372575 0.368100
0.418450 0.416654 0.413961
0.461706 0.460855 0.459578
0.179467 0.170070 0.155973
0.215485 0.207183 0.194731
0.255215 0.248228 0.237748
0.298399 0.292895 0.284637
0.342567 0.338547 0.332518
0.385624 0.382938 0.378909
0.428591 0.427042 0.424719
0.471949 0.471276 0.470268
0.515815 0.515680 0.515478
0.224390 0.216375 0.204354
0.265157 0.258510 0.248539
0.308794 0.303645 0.295921
0.352836 0.349148 0.343615
0.395705 0.393306 0.389707
0.438753 0.437437 0.435463
0.482220 0.481708 0.480939
0.526255 0.526189 0.526091
0.571690 0.571690 0.571690
0.275258 0.268958 0.259507
0.319212 0.314416 0.307222
0.362990 0.359622 0.354570
0.405802 0.403679 0.400494
0.448939 0.447840 0.446191
0.492522 0.492149 0.491590
0.536817 0.536797 0.536766
0.582459 0.582459 0.582459
0.627716 0.627716 0.627716
0.329620 0.325173 0.318503
0.373045 0.369986 0.365397
0.415918 0.414058 0.411269
0.459149 0.458250 0.456903
0.502854 0.502600 0.502220
0.547485 0.547485 0.547483
0.593206 0.593206 0.593206
0.638128 0.638128 0.638128
0.680644 0.680644 0.680644
0.383106 0.380347 0.376208
0.426053 0.424444 0.422031
0.469386 0.468670 0.467597
0.513219 0.513063 0.512829
0.558228 0.558228 0.558228
0.603908 0.603908 0.603908
0.648406 0.648406 0.648406
0.690247 0.690247 0.690247
0.729882 0.729882 0.729882
0.436210 0.434837 0.432778
0.479650 0.479099 0.478273
0.523633 0.523552 0.523431
0.568996 0.568996 0.568996
0.614545 0.614545 0.614545
0.658527 0.658527 0.658527
0.699745 0.699745 0.699745
0.738930 0.738930 0.738930
0.776208 0.776208 0.776208
0.489943 0.489538 0.488929
0.534166 0.534137 0.534093
0.579768 0.579768 0.579768
0.625095 0.625095 0.625095
0.668472 0.668472 0.668472
0.709137 0.709137 0.709137
0.747873 0.747873 0.747873
0.784702 0.784702 0.784702
0.819697 0.819697 0.819697
0.123037 0.112219 0.095992
0.153780 0.143682 0.128537
0.187710 0.178552 0.164816
0.224390 0.216375 0.204354
0.265157 0.258510 0.248539
0.308794 0.303645 0.295921
0.352836 0.349148 0.343615
0.395705 0.393306 0.389707
0.438753 0.437437 0.435463
0.161496 0.151601 0.136757
0.196100 0.187194 0.173835
0.233592 0.225880 0.214311
0.275258 0.268958 0.259507
0.319212 0.314416 0.307222
0.362990 0.359622 0.354570
0.405802 0.403679 0.400494
0.448939 0.447840 0.446191
0.492522 0.492149 0.491590
0.204631 0.195987 0.183022
0.243059 0.235662 0.224566
0.285486 0.279537 0.270614
0.329620 0.325173 0.318503
0.373045 0.369986 0.365397
0.415918 0.414058 0.411269
0.459149 0.458250 0.456903
0.502854 0.502600 0.502220
0.547485 0.547485 0.547483
0.252758 0.245688 0.235083
0.295808 0.290214 0.281823
0.339986 0.335882 0.329726
0.383106 0.380347 0.376208
0.426053 0.424444 0.422031
0.469386 0.468670 0.467597
0.513219 0.513063 0.512829
0.558228 0.558228 0.558228
0.603908 0.603908 0.603908
0.306192 0.300954 0.293097
0.350278 0.346508 0.340853
0.393183 0.390713 0.387008
0.436210 0.434837 0.432778
0.479650 0.479099 0.478273
0.523633 0.523552 0.523431
0.568996 0.568996 0.568996
0.614545 0.614545 0.614545
0.658527 0.658527 0.658527
0.360464 0.357017 0.351847
0.403276 0.401085 0.397798
0.446390 0.445238 0.443510
0.489943 0.489538 0.488929
0.534166 0.534137 0.534093
0.579768 0.579768 0.579768
0.625095 0.625095 0.625095
0.668472 0.668472 0.668472
0.709137 0.709137 0.709137
0.413387 0.411463 0.408576
0.456594 0.455647 0.454226
0.500268 0.499987 0.499565
0.544809 0.544806 0.544802
0.590522 0.590522 0.590522
0.635537 0.635537 0.635537
0.678227 0.678227 0.678227
0.718423 0.718423 0.718423
0.756710 0.756710 0.756710
0.466824 0.466064 0.464925
0.510624 0.510446 0.510179
0.555539 0.555539 0.555539
0.601238 0.601238 0.601238
0.645850 0.645850 0.645850
0.687856 0.687856 0.687856
0.727603 0.727603 0.727603
0.765442 0.765442 0.765442
0.801372 0.801372 0.801372
0.521019 0.520922 0.520776
0.566303 0.566303 0.566303
0.611893 0.611893 0.611893
0.656013 0.656013 0.656013
0.697380 0.697380 0.697380
0.736678 0.736678 0.736678
0.774068 0.774068 0.774068
0.809551 0.809551 0.809551
0.843669 0.843669 0.843669
0.144383 0.134051 0.118553
0.177431 0.167975 0.153791
0.213298 0.204926 0.192370
0.252758 0.245688 0.235083
0.295808 0.290214 0.281823
0.339986 0.335882 0.329726
0.383106 0.380347 0.376208
0.426053 0.424444 0.422031
0.469386 0.468670 0.467597
0.185635 0.176416 0.162588
0.222134 0.214047 0.201915
0.262655 0.255922 0.245823
0.306192 0.300954 0.293097
0.350278 0.346508 0.340853
0.393183 0.390713 0.387008
0.436210 0.434837 0.432778
0.479650 0.479099 0.478273
0.523633 0.523552 0.523431
0.231265 0.223476 0.211792
0.272720 0.266332 0.256750
0.316607 0.311723 0.304397
0.360464 0.357017 0.351847
0.403276 0.401085 0.397798
0.446390 0.445238 0.443510
0.489943 0.489538 0.488929
0.534166 0.534137 0.534093
0.579768 0.579768 0.579768
0.282919 0.276882 0.267826
0.327020 0.322487 0.315687
0.370531 0.367396 0.362693
0.413387 0.411463 0.408576
0.456594 0.455647 0.454226
0.500268 0.499987 0.499565
0.544809 0.544806 0.544802
0.590522 0.590522 0.590522
0.635537 0.635537 0.635537
0.337400 0.333211 0.326928
0.380590 0.377756 0.373506
0.423518 0.421847 0.419341
0.466824 0.466064 0.464925
0.510624 0.510446 0.510179
0.555539 0.555539 0.555539
0.601238 0.601238 0.601238
0.645850 0.645850 0.645850
0.687856 0.687856 0.687856
0.390662 0.388121 0.384309
0.433669 0.432238 0.430093
0.477081 0.476491 0.475606
0.521019 0.520922 0.520776
0.566303 0.566303 0.566303
0.611893 0.611893 0.611893
0.656013 0.656013 0.656013
0.697380 0.697380 0.697380
0.736678 0.736678 0.736678
0.443843 0.442637 0.440829
0.487367 0.486927 0.486267
0.531522 0.531482 0.531422
0.577076 0.577076 0.577076
0.622467 0.622467 0.622467
0.666004 0.666004 0.666004
0.706798 0.706798 0.706798
0.745647 0.745647 0.745647
0.782588 0.782588 0.782588
0.497684 0.497373 0.496908
0.542139 0.542132 0.542121
0.587837 0.587837 0.587837
0.632938 0.632938 0.632938
0.675803 0.675803 0.675803
0.716111 0.716111 0.716111
0.754511 0.754511 0.754511
0.791003 0.791003 0.791003
0.825749 0.825749 0.825749
0.552852 0.552852 0.552852
0.598564 0.598564 0.598564
0.643285 0.643285 0.643285
0.685459 0.685459 0.685459
0.725318 0.725318 0.725318
0.763269 0.763269 0.763269
0.799311 0.799311 0.799311
0.833763 0.833763 0.833763
0.866762 0.866762 0.866762
0.167395 0.157659 0.143054
0.202486 0.193775 0.180710
0.240669 0.233192 0.221977
0.282919 0.276882 0.267826
0.327020 0.322487 0.315687
0.370531 0.367396 0.362693
0.413387 0.411463 0.408576
0.456594 0.455647 0.454226
0.500268 0.499987 0.499565
0.211119 0.202678 0.190018
0.250313 0.243160 0.232431
0.293220 0.287538 0.279013
0.337400 0.333211 0.326928
0.380590 0.377756 0.373506
0.423518 0.421847 0.419341
0.466824 0.466064 0.464925
0.510624 0.510446 0.510179
0.555539 0.555539 0.555539
0.260164 0.253346 0.243119
0.303592 0.298265 0.290275
0.347714 0.343861 0.338082
0.390662 0.388121 0.384309
0.433669 0.432238 0.430093
0.477081 0.476491 0.475606
0.521019 0.520922 0.520776
0.566303 0.566303 0.566303
0.611893 0.611893 0.611893
0.314002 0.309030 0.301572
0.357929 0.354403 0.349113
0.400751 0.398492 0.395102
0.443843 0.442637 0.440829
0.487367 0.486927 0.486267
0.531522 0.531482 0.531422
0.577076 0.577076 0.577076
0.622467 0.622467 0.622467
0.666004 0.666004 0.666004
0.368019 0.364807 0.359988
0.410858 0.408868 0.405883
0.454041 0.453044 0.451549
0.497684 0.497373 0.496908
0.542139 0.542132 0.542121
0.587837 0.587837 0.587837
0.632938 0.632938 0.632938
0.675803 0.675803 0.675803
0.716111 0.716111 0.716111
0.420983 0.419250 0.416651
0.464264 0.463459 0.462252
0.508032 0.507830 0.507528
0.552852 0.552852 0.552852
0.598564 0.598564 0.598564
0.643285 0.643285 0.643285
0.685459 0.685459 0.685459
0.725318 0.725318 0.725318
0.763269 0.763269 0.763269
0.474514 0.473883 0.472937
0.518414 0.518298 0.518125
0.563610 0.563610 0.563610
0.609236 0.609236 0.609236
0.653487 0.653487 0.653487
0.695009 0.695009 0.695009
0.734419 0.734419 0.734419
0.771921 0.771921 0.771921
0.807515 0.807515 0.807515
0.528885 0.528833 0.528754
0.574383 0.574383 0.574383
0.619832 0.619832 0.619832
0.663523 0.663523 0.663523
0.704454 0.704454 0.704454
0.743415 0.743415 0.743415
0.780468 0.780468 0.780468
0.815646 0.815646 0.815646
0.849541 0.849541 0.849541
0.585149 0.585149 0.585149
0.630331 0.630331 0.630331
0.673372 0.673372 0.673372
0.713793 0.713793 0.713793
0.752305 0.752305 0.752305
0.788909 0.788909 0.788909
0.823735 0.823735 0.823735
0.857274 0.857274 0.857274
0.888553 0.888553 0.888553
