rauw/Rauw/Looks/TriX.cube
TITLE "Tri-X 400 (preview-benadering, iets zachter)"
LUT_3D_SIZE 33
0.033643 0.021672 0.003715
0.038527 0.026577 0.008650
0.043217 0.031291 0.013402
0.047765 0.035868 0.018022
0.052221 0.040357 0.022559
0.056637 0.044809 0.027066
0.061062 0.049275 0.031593
0.065548 0.053806 0.036192
0.070144 0.058452 0.040914
0.074899 0.063264 0.045812
0.079863 0.068293 0.050937
0.085085 0.073588 0.056342
0.090615 0.079200 0.062079
0.096500 0.085180 0.068200
0.102788 0.091576 0.074758
0.109432 0.098341 0.081705
0.116327 0.105370 0.088936
0.123464 0.112655 0.096441
0.130834 0.120186 0.104213
0.138429 0.127955 0.112243
0.146239 0.135953 0.120523
0.154257 0.144172 0.129045
0.162473 0.152603 0.137799
0.170879 0.161239 0.146778
0.179467 0.170070 0.155973
0.188230 0.179088 0.165375
0.197159 0.188285 0.174974
0.206246 0.197653 0.184762
0.215485 0.207183 0.194731
0.224956 0.216961 0.204967
0.234761 0.227088 0.215577
0.244861 0.237524 0.226519
0.255215 0.248228 0.237748
0.039646 0.027701 0.009783
0.044298 0.032379 0.014499
0.048820 0.036930 0.019095
0.053262 0.041405 0.023620
0.057676 0.045856 0.028127
0.062111 0.050333 0.032667
0.066618 0.054887 0.037290
0.071246 0.059567 0.042049
0.076046 0.064426 0.046996
0.081067 0.069513 0.052182
0.086357 0.074878 0.057660
0.091966 0.080572 0.063482
0.097941 0.086645 0.069701
0.104328 0.093143 0.076366
0.111032 0.099972 0.083381
0.117984 0.107062 0.090677
0.125177 0.114405 0.098246
0.132601 0.121993 0.106079
0.140248 0.129816 0.114169
0.148107 0.137867 0.122507
0.156172 0.146137 0.131084
0.164434 0.154617 0.139892
0.172884 0.163299 0.148923
0.181514 0.172175 0.158167
0.190316 0.181236 0.167616
0.199283 0.190474 0.177261
0.208407 0.199881 0.187092
0.217682 0.209451 0.197104
0.227235 0.219313 0.207431
0.237113 0.229517 0.218124
0.247275 0.240020 0.229137
0.257684 0.250781 0.240427
0.268298 0.261759 0.251949
0.045372 0.033459 0.015590
0.049870 0.037988 0.020164
0.054301 0.042453 0.024681
0.058715 0.046905 0.029191
0.063163 0.051396 0.033745
0.067694 0.055975 0.038396
0.072358 0.060693 0.043194
0.077206 0.065601 0.048193
0.082285 0.070748 0.053443
0.087646 0.076187 0.058997
0.093337 0.081965 0.064908
0.099406 0.088135 0.071228
0.105882 0.094726 0.077991
0.112645 0.101617 0.085073
0.119656 0.108767 0.092434
0.126904 0.116168 0.100066
0.134381 0.123812 0.107960
0.142078 0.131690 0.116109
0.149987 0.139794 0.124504
0.158099 0.148114 0.133136
0.166405 0.156642 0.141997
0.174898 0.165371 0.151079
0.183570 0.174291 0.160372
0.192412 0.183394 0.169868
0.201416 0.192672 0.179557
0.210575 0.202118 0.189432
0.219898 0.211738 0.199499
0.229531 0.221685 0.209916
0.239480 0.231963 0.220688
0.249704 0.242530 0.231771
0.260164 0.253346 0.243119
0.270822 0.264368 0.254689
0.281638 0.275557 0.266435
0.050917 0.039042 0.021230
0.055340 0.043500 0.025741
0.059757 0.047957 0.030256
0.064220 0.052463 0.034829
0.068778 0.057070 0.039510
0.073481 0.061829 0.044350
0.078378 0.066788 0.049403
0.083520 0.072000 0.054720
0.088954 0.077514 0.060354
0.094729 0.083380 0.066356
0.100894 0.089648 0.072780
0.107451 0.096323 0.079632
0.114273 0.103276 0.086780
0.121340 0.110486 0.094206
0.128643 0.117946 0.101900
0.136172 0.125645 0.109855
0.143920 0.133577 0.118062
0.151878 0.141732 0.126514
0.160036 0.150102 0.135201
0.168387 0.158678 0.144115
0.176923 0.167453 0.153247
0.185635 0.176416 0.162588
0.194516 0.185562 0.172131
0.203557 0.194880 0.181864
0.212752 0.204364 0.191781
0.222134 0.214047 0.201915
0.231845 0.224075 0.212420
0.241862 0.234425 0.223269
0.252145 0.245055 0.234419
0.262655 0.255922 0.245823
0.273354 0.266988 0.257438
0.284202 0.278209 0.269219
0.295161 0.289545 0.281120
0.056377 0.044547 0.026801
0.060801 0.049011 0.031325
0.065282 0.053536 0.035918
0.069869 0.058174 0.040632
0.074614 0.062976 0.045518
0.079564 0.067990 0.050629
0.084770 0.073268 0.056015
0.090280 0.078860 0.061731
0.096143 0.084817 0.067828
0.102406 0.091187 0.074359
0.109034 0.097936 0.081289
0.115914 0.104950 0.088503
0.123037 0.112219 0.095992
0.130394 0.119736 0.103749
0.137976 0.127491 0.111764
0.145774 0.135476 0.120029
0.153780 0.143682 0.128537
0.161984 0.152102 0.137278
0.170379 0.160725 0.146244
0.178957 0.169545 0.155426
0.187710 0.178552 0.164816
0.196629 0.187739 0.174404
0.205707 0.197097 0.184182
0.214937 0.206618 0.194140
0.224390 0.216375 0.204354
0.234176 0.226483 0.214944
0.244259 0.236902 0.225867
0.254599 0.247592 0.237081
0.265157 0.258510 0.248539
0.275894 0.269615 0.260197
0.286772 0.280867 0.272010
0.297751 0.292224 0.283933
0.308794 0.303645 0.295921
0.061848 0.050068 0.032398
0.066350 0.054616 0.037015
0.070970 0.059288 0.041765
0.075758 0.064134 0.046699
0.080764 0.069206 0.051869
0.086037 0.074554 0.057329
0.091626 0.080227 0.063129
0.097579 0.086277 0.069324
0.103942 0.092750 0.075963
0.110630 0.099563 0.082961
0.117569 0.106637 0.090241
0.124748 0.113966 0.097793
0.132158 0.121540 0.105611
0.139792 0.129350 0.113686
0.147639 0.137387 0.122010
0.155692 0.145645 0.130573
0.163943 0.154113 0.139368
0.172382 0.162783 0.148385
0.181001 0.171648 0.157617
0.189794 0.180698 0.167054
0.198751 0.189926 0.176688
0.207866 0.199323 0.186509
0.217131 0.208882 0.196509
0.226664 0.218723 0.206813
0.236523 0.228908 0.217486
0.246670 0.239395 0.228481
0.257065 0.250142 0.239756
0.267669 0.261108 0.251266
0.278442 0.272251 0.262964
0.289347 0.283531 0.274807
0.300345 0.294907 0.286750
0.311398 0.306337 0.298746
0.322467 0.317781 0.310751
0.067424 0.055702 0.038119
0.072079 0.060410 0.042907
0.076915 0.065306 0.047892
0.081979 0.070438 0.053126
0.087322 0.075858 0.058661
0.092992 0.081615 0.064549
0.099037 0.087760 0.070844
0.105492 0.094329 0.077584
0.112241 0.101204 0.084649
0.119237 0.108339 0.091993
0.126471 0.115726 0.099609
0.133935 0.123356 0.107489
0.141619 0.131221 0.115623
0.149516 0.139311 0.124003
0.157616 0.147618 0.132622
0.165912 0.156135 0.141470
0.174394 0.164852 0.150539
0.183055 0.173761 0.159820
0.191887 0.182854 0.169304
0.200882 0.192122 0.178982
0.210032 0.201558 0.188846
0.219342 0.211164 0.198898
0.228956 0.221091 0.209293
0.238887 0.231350 0.220045
0.249095 0.241902 0.231111
0.259543 0.252704 0.242445
0.270190 0.263715 0.254003
0.280998 0.274895 0.265740
0.291928 0.286201 0.277610
0.302942 0.297593 0.289569
0.314002 0.309030 0.301572
0.325069 0.320471 0.313573
0.336105 0.331874 0.325526
0.073199 0.061544 0.044060
0.078084 0.066490 0.049099
0.083210 0.071685 0.054399
0.088625 0.077180 0.060013
0.094379 0.083024 0.065992
0.100519 0.089268 0.072390
0.107058 0.095923 0.079220
0.113865 0.102860 0.086352
0.120918 0.110055 0.093761
0.128207 0.117500 0.101440
0.135723 0.125186 0.109380
0.143459 0.133104 0.117573
0.151404 0.141246 0.126010
0.159551 0.149604 0.134683
0.167891 0.158168 0.143584
0.176416 0.166931 0.152704
0.185118 0.175884 0.162033
0.193989 0.185019 0.171564
0.203021 0.194327 0.181287
0.212207 0.203801 0.191193
0.221574 0.213468 0.201309
0.231265 0.223476 0.211792
0.241265 0.233808 0.222622
0.251534 0.244422 0.233755
0.262032 0.255277 0.245146
0.272720 0.266332 0.256750
0.283560 0.277545 0.268522
0.294514 0.288875 0.280418
0.305542 0.300282 0.292391
0.316607 0.311723 0.304397
0.327670 0.323159 0.316391
0.338693 0.334547 0.328327
0.349638 0.345847 0.340161
0.079266 0.067688 0.050321
0.084456 0.072950 0.055690
0.089947 0.078522 0.061385
0.095787 0.084455 0.067458
0.102026 0.090800 0.073962
0.108637 0.097531 0.080873
0.115503 0.104530 0.088071
0.122612 0.111785 0.095544
0.129955 0.119287 0.103285
0.137524 0.127029 0.111285
0.145310 0.135000 0.119536
0.153303 0.143194 0.128030
0.161496 0.151601 0.136757
0.169880 0.160212 0.145711
0.178448 0.169021 0.154880
0.187190 0.178017 0.164258
0.196100 0.187194 0.173835
0.205169 0.196542 0.183601
0.214390 0.206054 0.193549
0.223824 0.215791 0.203742
0.233592 0.225880 0.214311
0.243658 0.236282 0.225216
0.253985 0.246956 0.236414
0.264531 0.257862 0.247859
0.275258 0.268958 0.259507
0.286129 0.280202 0.271312
0.297103 0.291554 0.283230
0.308144 0.302972 0.295215
0.319212 0.314416 0.307222
0.330269 0.325844 0.319207
0.341277 0.337215 0.331123
0.352197 0.348488 0.342926
0.362990 0.359622 0.354570
0.085719 0.074231 0.056999
0.091288 0.079884 0.062778
0.097217 0.085909 0.068947
0.103556 0.092358 0.075560
0.110230 0.099154 0.082541
0.117154 0.106214 0.089805
0.124319 0.113528 0.097342
0.131716 0.121087 0.105144
0.139337 0.128884 0.113204
0.147172 0.136908 0.121513
0.155213 0.145153 0.130063
0.163452 0.153609 0.138844
0.171880 0.162268 0.147849
0.180489 0.171121 0.157068
0.189272 0.180161 0.166494
0.198220 0.189378 0.176116
0.207325 0.198766 0.185926
0.216581 0.208315 0.195915
0.226093 0.218135 0.206196
0.235935 0.228300 0.216848
0.246066 0.238770 0.227826
0.256448 0.249503 0.239086
0.267040 0.260457 0.250583
0.277805 0.271592 0.262272
0.288703 0.282865 0.274108
0.299697 0.294236 0.286045
0.310747 0.305664 0.298040
0.321816 0.317108 0.310046
0.332865 0.328526 0.322018
0.343856 0.339878 0.333912
0.354750 0.351122 0.345681
0.365507 0.362217 0.357283
0.376187 0.373223 0.368776
0.092649 0.081266 0.064192
0.098670 0.087387 0.070462
0.105103 0.093933 0.077177
0.111837 0.100792 0.084225
0.118818 0.107913 0.091554
0.126039 0.115285 0.099154
0.133490 0.122901 0.107018
0.141161 0.130752 0.115137
0.149046 0.138829 0.123504
0.157134 0.147124 0.132108
0.165418 0.155628 0.140943
0.173890 0.164334 0.149999
0.182541 0.173232 0.159268
0.191363 0.182314 0.168740
0.200348 0.191572 0.178408
0.209490 0.200998 0.188261
0.218788 0.210592 0.198298
0.228381 0.220497 0.208671
0.238294 0.230738 0.219404
0.248488 0.241274 0.230452
0.258922 0.252062 0.241772
0.269559 0.263062 0.253318
0.280358 0.274233 0.265045
0.291283 0.285533 0.276909
0.302293 0.296921 0.288864
0.313351 0.308357 0.300865
0.324419 0.319798 0.312868
0.335458 0.331205 0.324825
0.346429 0.342535 0.336694
0.357294 0.353748 0.348428
0.368019 0.364807 0.359988
0.378703 0.375813 0.371479
0.389403 0.386825 0.382959
0.100147 0.088888 0.072001
0.106665 0.095523 0.078810
0.113458 0.102444 0.085925
0.120496 0.109625 0.093318
0.127772 0.117055 0.100981
0.135275 0.124727 0.108906
0.142998 0.132632 0.117084
0.150931 0.140761 0.125507
0.159066 0.149106 0.134167
0.167395 0.157659 0.143054
0.175910 0.166410 0.152161
0.184601 0.175352 0.161479
0.193463 0.184477 0.170998
0.202486 0.193775 0.180710
0.211663 0.203240 0.190605
0.221014 0.212890 0.200704
0.230686 0.222878 0.211166
0.240669 0.233192 0.221977
0.250923 0.243791 0.233093
0.261408 0.254633 0.244470
0.272087 0.265677 0.256062
0.282919 0.276882 0.267826
0.293867 0.288206 0.279715
0.304892 0.299609 0.291686
0.315956 0.311050 0.303691
0.327020 0.322487 0.315687
0.338047 0.333879 0.327628
0.348997 0.345185 0.339468
0.359831 0.356365 0.351165
0.370531 0.367396 0.362693
0.381219 0.378404 0.374181
0.391923 0.389417 0.385659
0.402645 0.400437 0.397124
0.108241 0.097128 0.080458
0.115092 0.104111 0.087640
0.122187 0.111351 0.095097
0.129517 0.118839 0.102822
0.137073 0.126567 0.110808
0.144846 0.134525 0.119044
0.152827 0.142706 0.127524
0.161009 0.151100 0.136238
0.169382 0.159700 0.145178
0.177939 0.168497 0.154335
0.186671 0.177483 0.163701
0.195571 0.186649 0.173266
0.204631 0.195987 0.183022
0.213844 0.205490 0.192959
0.223260 0.215209 0.203132
0.233009 0.225277 0.213680
0.243059 0.235662 0.224566
0.253371 0.246322 0.235748
0.263905 0.257215 0.247180
0.274623 0.268300 0.258817
0.285486 0.279537 0.270614
0.296456 0.290884 0.282526
0.307493 0.302299 0.294509
0.318561 0.313743 0.306516
0.329620 0.325173 0.318503
0.340632 0.336549 0.330424
0.351558 0.347829 0.342235
0.362360 0.358972 0.353891
0.373045 0.369986 0.365397
0.383736 0.380995 0.376883
0.394444 0.392009 0.388358
0.405171 0.403030 0.399820
0.415918 0.414058 0.411269
0.116740 0.105792 0.089370
0.123891 0.113091 0.096891
0.131275 0.120636 0.104678
0.138882 0.128419 0.112723
0.146705 0.136430 0.121018
0.154735 0.144662 0.129553
0.162962 0.153106 0.138321
0.171379 0.161753 0.147313
0.179978 0.170595 0.156520
0.188751 0.179624 0.165934
0.197689 0.188831 0.175545
0.206785 0.198209 0.185344
0.216033 0.207749 0.195322
0.225524 0.217547 0.205581
0.235348 0.227694 0.216212
0.245463 0.238147 0.227172
0.255831 0.248865 0.238417
0.266412 0.259807 0.249901
0.277167 0.270932 0.261580
0.288059 0.282199 0.273408
0.299048 0.293565 0.285341
0.310096 0.304991 0.297334
0.321165 0.316435 0.309340
0.332216 0.327856 0.321316
0.343212 0.339213 0.333215
0.354112 0.350465 0.344993
0.364879 0.361570 0.356606
0.375559 0.372575 0.368100
0.386254 0.383586 0.379584
0.396966 0.394602 0.391056
0.407697 0.405625 0.402515
0.418450 0.416654 0.413961
0.429225 0.427691 0.425391
0.125608 0.114844 0.098700
0.133045 0.122446 0.106548
0.140704 0.130284 0.114653
0.148576 0.138348 0.123005
0.156653 0.146630 0.131596
0.164926 0.155122 0.140417
0.173387 0.163816 0.149461
0.182027 0.172703 0.158717
0.190839 0.181775 0.168178
0.199815 0.191023 0.177834
0.208948 0.200439 0.187676
0.218234 0.210021 0.197700
0.227807 0.219905 0.208051
0.237703 0.230127 0.218763
0.247881 0.240646 0.229794
0.258303 0.251421 0.241099
0.268928 0.262410 0.252633
0.279719 0.273572 0.264351
0.290637 0.284866 0.276208
0.301644 0.296250 0.288159
0.312700 0.307684 0.300159
0.323768 0.319126 0.312162
0.334810 0.330536 0.324124
0.345786 0.341871 0.335999
0.356659 0.353092 0.347742
0.367391 0.364159 0.359312
0.378074 0.375166 0.370803
0.388773 0.386177 0.382284
0.399489 0.397195 0.393754
0.410225 0.408219 0.405210
0.420983 0.419250 0.416651
0.431764 0.430290 0.428078
0.442570 0.441337 0.439488
0.134828 0.124270 0.108432
0.142538 0.132161 0.116596
0.150459 0.140277 0.125005
0.158582 0.148610 0.133651
0.166900 0.157150 0.142525
0.175404 0.165890 0.151620
0.184085 0.174821 0.160925
0.192937 0.183935 0.170433
0.201950 0.193224 0.180133
0.211119 0.202678 0.190018
0.220455 0.212314 0.200101
0.230108 0.222281 0.210540
0.240074 0.232577 0.221332
0.250313 0.243160 0.232431
0.260786 0.253989 0.243794
0.271454 0.265022 0.255375
0.282278 0.276219 0.267130
0.293220 0.287538 0.279013
0.304242 0.298937 0.290980
0.315305 0.310377 0.302985
0.326370 0.321815 0.314982
0.337400 0.333211 0.326928
0.348355 0.344523 0.338776
0.359198 0.355711 0.350481
0.369903 0.366749 0.362016
0.380590 0.377756 0.373506
0.391293 0.388769 0.384984
0.402014 0.399788 0.396450
0.412755 0.410814 0.407903
0.423518 0.421847 0.419341
0.434304 0.432888 0.430764
0.445116 0.443938 0.442170
0.455956 0.454996 0.453557
0.144383 0.134051 0.118553
0.152352 0.142219 0.127018
0.160522 0.150601 0.135719
0.168884 0.159189 0.144646
0.177431 0.167975 0.153791
0.186153 0.176949 0.163144
0.195043 0.186105 0.172698
0.204094 0.195434 0.182443
0.213298 0.204926 0.192370
0.222696 0.214627 0.202523
0.232426 0.224676 0.213049
0.242460 0.235043 0.223917
0.252758 0.245688 0.235083
0.263280 0.256568 0.246501
0.273988 0.267644 0.258127
0.284844 0.278873 0.269916
0.295808 0.290214 0.281823
0.306843 0.301627 0.293803
0.317909 0.313070 0.305810
0.328970 0.324502 0.317799
0.339986 0.335882 0.329726
0.350918 0.347169 0.341544
0.361728 0.358321 0.353210
0.372416 0.369338 0.364721
0.383106 0.380347 0.376208
0.393813 0.391361 0.387683
0.404539 0.402382 0.399146
0.415285 0.413409 0.410596
0.426053 0.424444 0.422031
0.436846 0.435487 0.433449
0.447664 0.446539 0.444851
0.458510 0.457600 0.456234
0.469386 0.468670 0.467597
0.154257 0.144172 0.129045
0.162473 0.152603 0.137799
0.170879 0.161239 0.146778
0.179467 0.170070 0.155973
0.188230 0.179088 0.165375
0.197159 0.188285 0.174974
0.206246 0.197653 0.184762
0.215485 0.207183 0.194731
0.224956 0.216961 0.204967
0.234761 0.227088 0.215577
0.244861 0.237524 0.226519
0.255215 0.248228 0.237748
0.265784 0.259158 0.249220
0.276531 0.270274 0.260888
0.287415 0.281533 0.272709
0.298399 0.292895 0.284637
0.309445 0.304318 0.296627
0.320514 0.315762 0.308634
0.331567 0.327186 0.320613
0.342567 0.338547 0.332518
0.353474 0.349806 0.344305
0.364250 0.360921 0.355928
0.374930 0.371928 0.367424
0.385624 0.382938 0.378909
0.396335 0.393954 0.390382
0.407066 0.404976 0.401842
0.417817 0.416005 0.413288
0.428591 0.427042 0.424719
0.439389 0.438087 0.436134
0.450214 0.449140 0.447531
0.461066 0.460203 0.458909
0.471949 0.471276 0.470268
0.482863 0.482360 0.481605
0.164434 0.154617 0.139892
0.172884 0.163299 0.148923
0.181514 0.172175 0.158167
0.190316 0.181236 0.167616
0.199283 0.190474 0.177261
0.208407 0.199881 0.187092
0.217682 0.209451 0.197104
0.227235 0.219313 0.207431
0.237113 0.229517 0.218124
0.247275 0.240020 0.229137
0.257684 0.250781 0.240427
0.268298 0.261759 0.251949
0.279081 0.272911 0.263657
0.289992 0.284198 0.275508
0.300994 0.295578 0.287454
0.312049 0.307010 0.299453
0.323118 0.318453 0.311457
0.334162 0.329866 0.323422
0.345143 0.341207 0.335304
0.356023 0.352436 0.347056
0.366763 0.363512 0.358635
0.377445 0.374518 0.370128
0.388143 0.385529 0.381609
0.398858 0.396547 0.393079
0.409593 0.407570 0.404536
0.420350 0.418601 0.415979
0.431129 0.429640 0.427406
0.441934 0.440687 0.438817
0.452765 0.451743 0.450210
0.463624 0.462808 0.461584
0.474514 0.473883 0.472937
0.485436 0.484970 0.484269
0.496392 0.496067 0.495579
0.174898 0.165371 0.151079
0.183570 0.174291 0.160372
0.192412 0.183394 0.169868
0.201416 0.192672 0.179557
0.210575 0.202118 0.189432
0.219898 0.211738 0.199499
0.229531 0.221685 0.209916
0.239480 0.231963 0.220688
0.249704 0.242530 0.231771
0.260164 0.253346 0.243119
0.270822 0.264368 0.254689
0.281638 0.275557 0.266435
0.292574 0.286869 0.278312
0.303592 0.298265 0.290275
0.314653 0.309703 0.302278
0.325720 0.321143 0.314278
0.336753 0.332543 0.326227
0.347714 0.343861 0.338082
0.358564 0.355057 0.349797
0.369275 0.366101 0.361340
0.379961 0.377108 0.372830
0.390662 0.388121 0.384309
0.401382 0.399140 0.395776
0.412122 0.410165 0.407230
0.422884 0.421198 0.418669
0.433669 0.432238 0.430093
0.444480 0.443287 0.441499
0.455317 0.454345 0.452888
0.466184 0.465413 0.464257
0.477081 0.476491 0.475606
0.488011 0.487580 0.486932
0.498975 0.498680 0.498236
0.509976 0.509792 0.509516
0.185635 0.176416 0.162588
0.194516 0.185562 0.172131
0.203557 0.194880 0.181864
0.212752 0.204364 0.191781
0.222134 0.214047 0.201915
0.231845 0.224075 0.212420
0.241862 0.234425 0.223269
0.252145 0.245055 0.234419
0.262655 0.255922 0.245823
0.273354 0.266988 0.257438
0.284202 0.278209 0.269219
0.295161 0.289545 0.281120
0.306192 0.300954 0.293097
0.317258 0.312396 0.305104
0.328320 0.323830 0.317095
0.339340 0.335215 0.329027
0.350278 0.346508 0.340853
0.361097 0.357670 0.352529
0.371788 0.368691 0.364045
0.382477 0.379699 0.375532
0.393183 0.390713 0.387008
0.403908 0.401734 0.398472
0.414652 0.412761 0.409923
0.425419 0.423795 0.421358
0.436210 0.434837 0.432778
0.447027 0.445888 0.444180
0.457871 0.456949 0.455565
0.468745 0.468019 0.466929
0.479650 0.479099 0.478273
0.490588 0.490190 0.489594
0.501560 0.501293 0.500893
0.512570 0.512409 0.512167
0.523633 0.523552 0.523431
0.196629 0.187739 0.174404
0.205707 0.197097 0.184182
0.214937 0.206618 0.194140
0.224390 0.216375 0.204354
0.234176 0.226483 0.214944
0.244259 0.236902 0.225867
0.254599 0.247592 0.237081
0.265157 0.258510 0.248539
0.275894 0.269615 0.260197
0.286772 0.280867 0.272010
0.297751 0.292224 0.283933
0.308794 0.303645 0.295921
0.319863 0.315089 0.307928
0.330918 0.326515 0.319910
0.341922 0.337882 0.331820
0.352836 0.349148 0.343615
0.363620 0.360272 0.355250
0.374302 0.371280 0.366749
0.384995 0.382290 0.378234
0.395705 0.393306 0.389707
0.406434 0.404327 0.401168
0.417184 0.415356 0.412615
0.427956 0.426392 0.424047
0.438753 0.437437 0.435463
0.449576 0.448490 0.446861
0.460427 0.459552 0.458240
0.471308 0.470625 0.469600
0.482220 0.481708 0.480939
0.493166 0.492802 0.492255
0.504148 0.503908 0.503548
0.515166 0.515026 0.514816
0.526255 0.526189 0.526091
0.537481 0.537463 0.537435
0.207866 0.199323 0.186509
0.217131 0.208882 0.196509
0.226664 0.218723 0.206813
0.236523 0.228908 0.217486
0.246670 0.239395 0.228481
0.257065 0.250142 0.239756
0.267669 0.261108 0.251266
0.278442 0.272251 0.262964
0.289347 0.283531 0.274807
0.300345 0.294907 0.286750
0.311398 0.306337 0.298746
0.322467 0.317781 0.310751
0.333514 0.329196 0.322720
0.344500 0.340543 0.334608
0.355387 0.351779 0.346369
0.366135 0.362865 0.357959
0.376816 0.373870 0.369452
0.387513 0.384882 0.380934
0.398228 0.395898 0.392405
0.408961 0.406922 0.403863
0.419716 0.417952 0.415306
0.430494 0.428990 0.426734
0.441297 0.440037 0.438146
0.452127 0.451092 0.449540
0.462985 0.462157 0.460915
0.473873 0.473232 0.472270
0.484793 0.484317 0.483603
0.495747 0.495414 0.494914
0.506737 0.506523 0.506201
0.517764 0.517644 0.517463
0.528885 0.528833 0.528754
0.540141 0.540129 0.540112
0.551509 0.551509 0.551509
0.219342 0.211164 0.198898
0.228956 0.221091 0.209293
0.238887 0.231350 0.220045
0.249095 0.241902 0.231111
0.259543 0.252704 0.242445
0.270190 0.263715 0.254003
0.280998 0.274895 0.265740
0.291928 0.286201 0.277610
0.302942 0.297593 0.289569
0.314002 0.309030 0.301572
0.325069 0.320471 0.313573
0.336105 0.331874 0.325526
0.347072 0.343198 0.337388
0.357929 0.354403 0.349113
0.368647 0.365454 0.360664
0.379332 0.376461 0.372155
0.390032 0.387473 0.383634
0.400751 0.398492 0.395102
0.411490 0.409517 0.406557
0.422250 0.420549 0.417997
0.433034 0.431589 0.429421
0.443843 0.442637 0.440829
0.454679 0.453695 0.452218
0.465544 0.464762 0.463589
0.476439 0.475839 0.474939
0.487367 0.486927 0.486267
0.498330 0.498027 0.497572
0.509328 0.509138 0.508854
0.520367 0.520265 0.520113
0.531522 0.531482 0.531422
0.542806 0.542800 0.542791
0.554195 0.554195 0.554195
0.565630 0.565630 0.565630
0.231265 0.223476 0.211792
0.241265 0.233808 0.222622
0.251534 0.244422 0.233755
0.262032 0.255277 0.245146
0.272720 0.266332 0.256750
0.283560 0.277545 0.268522
0.294514 0.288875 0.280418
0.305542 0.300282 0.292391
0.316607 0.311723 0.304397
0.327670 0.323159 0.316391
0.338693 0.334547 0.328327
0.349638 0.345847 0.340161
0.360464 0.357017 0.351847
0.371160 0.368043 0.363369
0.381848 0.379051 0.374857
0.392553 0.390065 0.386334
0.403276 0.401085 0.397798
0.414020 0.412112 0.409250
0.424785 0.423146 0.420686
0.435575 0.434188 0.432107
0.446390 0.445238 0.443510
0.457233 0.456298 0.454895
0.468105 0.467367 0.466261
0.479008 0.478447 0.477606
0.489943 0.489538 0.488929
0.500914 0.500640 0.500229
0.511921 0.511754 0.511504
0.522979 0.522894 0.522767
0.534166 0.534137 0.534093
0.545478 0.545476 0.545472
0.556883 0.556883 0.556883
0.568323 0.568323 0.568323
0.579768 0.579768 0.579768
0.243658 0.236282 0.225216
0.253985 0.246956 0.236414
0.264531 0.257862 0.247859
0.275258 0.268958 0.259507
0.286129 0.280202 0.271312
0.297103 0.291554 0.283230
0.308144 0.302972 0.295215
0.319212 0.314416 0.307222
0.330269 0.325844 0.319207
0.341277 0.337215 0.331123
0.352197 0.348488 0.342926
0.362990 0.359622 0.354570
0.373673 0.370633 0.366073
0.384365 0.381642 0.377558
0.395074 0.392658 0.389032
0.405802 0.403679 0.400494
0.416551 0.414707 0.411942
0.427322 0.425743 0.423375
0.438117 0.436787 0.434792
0.448939 0.447840 0.446191
0.459788 0.458901 0.457571
0.470667 0.469973 0.468932
0.481578 0.481056 0.480272
0.492522 0.492149 0.491590
0.503501 0.503254 0.502884
0.514517 0.514371 0.514154
0.525599 0.525529 0.525425
0.536817 0.536797 0.536766
0.548155 0.548155 0.548154
0.559573 0.559573 0.559573
0.571016 0.571016 0.571016
0.582459 0.582459 0.582459
0.593876 0.593876 0.593876
0.256448 0.249503 0.239086
0.267040 0.260457 0.250583
0.277805 0.271592 0.262272
0.288703 0.282865 0.274108
0.299697 0.294236 0.286045
0.310747 0.305664 0.298040
0.321816 0.317108 0.310046
0.332865 0.328526 0.322018
0.343856 0.339878 0.333912
0.354750 0.351122 0.345681
0.365507 0.362217 0.357283
0.376187 0.373223 0.368776
0.386883 0.384234 0.380259
0.397597 0.395250 0.391730
0.408329 0.406273 0.403189
0.419083 0.417303 0.414633
0.429860 0.428341 0.426063
0.440661 0.439387 0.437475
0.451489 0.450441 0.448870
0.462345 0.461506 0.460246
0.473231 0.472580 0.471603
0.484150 0.483665 0.482937
0.495102 0.494761 0.494250
0.506089 0.505869 0.505538
0.517114 0.516989 0.516802
0.528227 0.528171 0.528088
0.539475 0.539462 0.539443
0.550838 0.550838 0.550838
